!!!!SEGMENT: pl-wn--mus-iii-125-889_zelenski-wladyslaw--grande-polonaise-op-45.krn
!!!cenid: 18xx:3722
!!!COM: Żeleński, Władysław
!!!COM-rismID: pe41024455
!!!CDT: 1837/07/06-1921/01/23
!!!CNT: Polish
!!!OTL: Grande Polonaise op. 45
!!!PDT:
!!!AGN:
!!!SMS-siglum: PL-Wn
!!!SMS-shelfmark: Mus.III.125.889
!!!SMS-shelfwork: W
!!!SMS-variant:
!!!SMS-altvar:
!!!NIFC-rismSourceID:
!!!NIFC-rismChildID:
!!!NIFC-islandoraID:
!!!URL-pdf-islandora:
!!!URL-scan: https://polona.pl/item/grande-polonaise-pour-orchestre-op-45-arrangement-pour-piano-a-deux-mains-par,MTA5NzAwMjM5/4 @EN{Scan on Polona} @PL{Skany w portalu Polona}
!!!ONB-nifc:
!!!AIN: 2 piano
!!!key: B-
**kern	**dynam	**kern	**dynam
*part2	*part2	*part1	*part1
*staff2	*	*staff1	*
*I"PIANO.	*	*I"PIANO.	*
*I'pf	*	*I'pf	*
*ICklav	*	*ICklav	*
*Ipiano	*	*Ipiano	*
*clefF4	*	*clefG2	*
*k[b-e-]	*	*k[b-e-]	*
*B-:	*	*B-:	*
*M3/4	*	*M3/4	*
=1	=1	=1	=1
*^	*	*^	*
*xywh-2:477,396,3719,1536	*xywh-2:477,396,3719,1536	*	*xywh-2:477,396,3719,1536	*xywh-2:477,396,3719,1536	*
!	!	!	!	!LO:TX:B:t=Tempo di Pollaca moderato.	!
*ped	*	*	*	*	*
8.FFF/L 8.FF	4ryy	.	8.ff\L 8.fff	8.ryy	f
16FF/Jk 16F	.	.	16f\Jk 16ff	16ryy	.
8FF/ 8F	8ryy	.	8f\ 8ff	8ryy	.
*Xped	*	*	*	*	*
(16A/LL	[4.F\	.	[4.f/	16c\LL	p
16B-/JJ	.	.	.	16d-X\JJ	.
8c/L	.	.	.	8e-\L	.
16B-/L	.	.	.	16d-\L	.
16A/JJ	.	.	.	16c\JJ	.
=2	=2	=2	=2	=2	=2
8F\)] 8B-	4ryy	.	8f/]	8d-X\L	.
(16E-/LL	.	.	4f^/	(16c\L	.
16G-X/JJ	.	.	.	16e-\JJ	.
8F/L)	8ryy	.	.	8d-\L)	.
*Xtuplet	*	*	*	*Xtuplet	*
(24D/L	4FF\	.	4f^/	(24B-\L	.
24E-/	.	.	.	24c\	.
24F/JJ	.	.	.	24d-\JJ	.
8E-/L)	.	.	.	8c\L)	.
(24BB-/L	[8FF\	.	[8f^/	(24Gn\L	.
24C/	.	.	.	24A\	.
24D-X/JJ	.	.	.	24B-\JJ	.
=3	=3	=3	=3	=3	=3
*ped	*	*	*	*	*
8.FF/L]) 8.C	4ryy	.	8.A/L) 8.f]	8ryy	.
.	.	.	.	8ryy	.
16FF/Jk 16F	.	.	16f/Jk 16ff	.	f
8FF/ 8F	8ryy	.	8f\ 8ff	8ryy	.
*Xped	*	*	*	*	*
(16A/LL	[4.F\	.	4.f/ [4.ff	(16cc\LL	p
16B-/JJ	.	.	.	16dd-X\JJ	.
8c/L	.	.	.	8ee-\L	.
16B-/L	.	.	.	16dd-\L	.
16A/JJ	.	.	.	16cc\JJ	.
*	*	*	*v	*v	*
!!LO:LB:g=original	!	!	!
=4	=4	=4	=4	=4
*xywh-2:484,1856,3585,793	*xywh-2:484,1856,3585,793	*	*xywh-2:484,1856,3585,793	*
8F\]) 8B-	8ryy	.	8f/L) 8dd-X 8ff]	.
(16F/LL	4F\	.	(16e-/L 16cc	<
16A/JJ	.	.	16g-X/JJ 16ee-	.
8B-/L)	.	.	8f/L) 8dd-	.
*tuplet	*	*	*tuplet	*
(24d-X/L	[4.F\	.	(24b-^/L	[
24e-/	.	.	24cc/	.
24f/JJ	.	.	24ddn/JJ	.
8e-/L)	.	.	8cc/L)	.
(24B-/L	.	.	(24en^/L 24g-	.
24c/	.	.	24f/ 24a	.
24d-/JJ	.	.	24g-/JJ 24b-	.
*Xtuplet	*	*	*Xtuplet	*
*v	*v	*	*	*
=5	=5	=5	=5
*	*	*^	*
8F\]) 8c	.	8.f\L) 8.a	8.ryy	.
8r	.	.	.	.
*ped	*	*	*	*
*tremolo	*	*clefF4	*	*
.	.	16AA\Jk 16A	16ryy	p
32FFF/LLL	.	[4A/	8AA\L	.
32FF/	.	.	.	.
32FFF/	.	.	.	.
32FF/	.	.	.	.
32FFF/	.	.	(24F\L	.
32FF/	.	.	.	.
.	.	.	24En\	.
32FFF/	.	.	.	.
.	.	.	24D\JJ	.
32FF/	.	.	.	.
32FFF/	.	8C#X\) 8A]	8ryy	.
32FF/	.	.	.	.
32FFF/	.	.	.	.
32FF/	.	.	.	.
*	*	*clefG2	*	*
32FFF/	.	8c#X/ 8a	24g\LL	<
32FF/	.	.	.	.
.	.	.	24f\	.
32FFF/	.	.	.	.
.	.	.	24en\JJ	.
32FF/JJJ	.	.	.	.
*Xped	*	*	*	*
=6	=6	=6	=6	=6
*ped	*	*	*	*
32FFF/LLL	.	8.B-/L 8.d 8.a-X 8.b-	8.ryy	.
32FF/	.	.	.	.
32FFF/	.	.	.	.
32FF/	.	.	.	.
32FFF/	.	.	.	.
32FF/	.	.	.	.
*	*	*clefF4	*	*
32FFF/	.	16BB-/Jk 16B-	16ryy	.
32FF/	.	.	.	.
32FFF/	.	[4B-/	8BB-\L	.
32FF/	.	.	.	.
32FFF/	.	.	.	.
32FF/	.	.	.	.
32FFF/	.	.	(<24G\L	.
32FF/	.	.	.	.
.	.	.	24F\	[
32FFF/	.	.	.	.
.	.	.	24E-X\JJ	.
32FF/	.	.	.	.
32FFF/	.	8D\) 8B-]	8ryy	.
32FF/	.	.	.	.
32FFF/	.	.	.	.
32FF/	.	.	.	.
*	*	*clefG2	*	*
32FFF/	.	8d/ 8b-	24a-X\LL	.
32FF/	.	.	.	.
.	.	.	24g\	.
32FFF/	.	.	.	.
.	.	.	24f\JJ	.
32FF/JJJ	.	.	.	.
*Xped	*	*	*	*
!!LO:LB:g=original	!	!	!	!
=7	=7	=7	=7	=7
*xywh-2:496,2541,3585,806	*	*xywh-2:496,2541,3585,806	*xywh-2:496,2541,3585,806	*xywh-2:496,2541,3585,806
*ped	*	*	*	*
32FFF/LLL	.	8.c/L 8.en 8.b- 8.cc	8.ryy	.
32FF/	.	.	.	.
32FFF/	.	.	.	.
32FF/	.	.	.	.
32FFF/	.	.	.	.
32FF/	.	.	.	.
*	*	*clefF4	*	*
32FFF/	.	16C/Jk 16c	16ryy	.
32FF/	.	.	.	.
32FFF/	.	(8C/L 8c	8ryy	.
32FF/	.	.	.	.
32FFF/	.	.	.	.
32FF/	.	.	.	.
32FFF/	.	8En/ [8c	24B-\LL	.
32FF/	.	.	.	.
.	.	.	24An\	.
32FFF/	.	.	.	.
.	.	.	24G\JJ	.
*Xped	*	*	*	*
32FF/JJJ	.	.	.	.
8FFF/L 8FF	.	8F/J) 8A 8c]	8r	.
*	*	*clefG2	*	*
8EE-/J 8E-	.	8cc#X/	24b-\LL	.
.	.	.	24a\	.
.	.	.	24g\JJ	.
=8	=8	=8	=8	=8
4DD\ 4D	.	8dd/	16f#X\LL	.
.	.	.	(16F#X\	.
.	.	8ryy	16G\	.
.	.	.	16A\JJ	.
4DD-X/ 4D-X	.	(4en/	8B-\L)	.
.	.	.	(24B-\L	.
.	.	.	24A\	.
.	.	.	24G\JJ	.
4CC/ 4C	.	4fn/)	8A\L)	.
.	.	.	(24A\L	.
.	.	.	24B-\	.
.	.	.	24c\JJ	.
=9	=9	=9	=9	=9
4BBBn/ 4BBn	.	(4f#X^/	8d\L)	.
.	.	.	(24c#X\L	.
.	.	.	24d\	.
.	.	.	24en\JJ	.
4BB\ 4Bn	.	4g^/	8d\L)	.
.	.	.	(24c#\L	.
.	.	.	24d\	.
.	.	.	24e\JJ	.
4BB-X\ 4B-X	.	4g#X^/)	8d\L)	.
.	.	.	(24fn\L	.
.	.	.	24e\	.
.	.	.	24d\JJ	.
!!LO:LB:g=original	!	!	!	!
=10	=10	=10	=10	=10
*^	*	*	*	*
*xywh-2:548,3201,3527,883	*xywh-2:548,3201,3527,883	*	*xywh-2:548,3201,3527,883	*xywh-2:548,3201,3527,883	*
8AA/L	4AA\	.	(4a^/)	8c#X\L	.
(<24G/L	.	.	.	(24c#\L	.
24F/	.	.	.	24d\	.
24En/JJ	.	.	.	24en\JJ	.
8GG#X/L)	4GG#\	.	4bn^/	8d\L)	<
(<24D\L	.	.	.	(24f\L	.
24E/	.	.	.	24e\	.
24F/JJ	.	.	.	24d\JJ	.
8GGn/L)	4GG\	.	4cc#X^/)	8e\L)	.
(<24G/L	.	.	.	(24e\L	.
24F#X/	.	.	.	24f#X\	.
24E/JJ	.	.	.	24g\JJ	[
=11	=11	=11	=11	=11	=11
8F#X/L	4FF#X\)	.	(4d/ 4dd	8a\L)	.
24c/L	.	.	.	(24a\L	.
24B-/	.	.	.	24b-\	.
24A/JJ	.	.	.	24cc\JJ	.
8G^/L	4G\	.	4e-X/ 4ee-X	8b-\L)	.
24A/L	.	.	.	(24cc\L	.
24B-/	.	.	.	24b-\	.
24c/JJ	.	.	.	24a\JJ	.
8C^/L	4C\	.	4en/ 4een	8b-\L)	.
24G/L	.	.	.	(24b-\L	.
24A/	.	.	.	24a\	.
24B-/JJ	.	.	.	24g\JJ	.
*v	*v	*	*	*	*
*	*	*v	*v	*
=12	=12	=12	=12
8FF:/ 8C: 8A:	.	8f\)) 8a 8ff	.
*ped	*	*	*
4FFF/ 4FF	.	4ff^\ 4fff	ff
*Xtremolo	*	*	*
16FF/LL 16F	.	16f\LL 16ff	.
16FF/JJ 16F	.	16f\JJ 16ff	.
16FF/LL 16F	.	16f\LL 16ff	.
16FF/ 16F	.	16f\ 16ff	.
16FF/ 16F	.	16f\ 16ff	.
16FF/JJ 16F	.	16f\JJ 16ff	.
=13	=13	=13	=13
*Xped	*	*	*
8FF/ 8F	.	8f\ 8ff	.
*ped	*	*	*
4FFF/ 4FF	.	4ff^\ 4fff	.
*Xped	*	*	*
16E-\LL 16e-	.	16ee-\LL 16eee-	>
16D\JJ 16d	.	16dd\JJ 16ddd	.
16C\LL 16c	.	16cc\LL 16ccc	.
16BB-\ 16B-	.	16b-\ 16bb-	.
16AA\ 16A	.	16a\ 16aa	.
16GG\JJ 16G	.	16g\JJ 16gg	.
!!LO:LB:g=original	!	!	!
=14	=14	=14	=14
*xywh-2:484,3988,3713,1446	*	*xywh-2:484,3988,3713,1446	*
8FF/L 8F	.	8f\L 8ff	.
16AA/L 16A	.	16a\L 16aa	.
16GG/JJ 16G	.	16g\JJ 16gg	.
8FF/L 8F	.	8f/L 8ff	.
16EE-/L 16E-	.	16e-/L 16ee-	.
16DD/JJ 16D	.	16d/JJ 16dd	.
8FF/L 8F	.	8f/L 8ff	.
16EE-/L 16E-	.	16e-/L 16ee-	.
16CC/JJ 16C	.	16c/JJ 16cc	]]
=15	=15	=15	=15
*ped	*	*	*
4BBB-/ 4BB-	.	8B-/L 8b-	.
.	.	(<16d/L 16b-	p
.	.	16f/JJ 16cc	.
8r	.	[4b-\ [4dd	.
*Xtremolo	*	*	*
*Xped	*	*	*
8D'\L 8B-	.	.	.
8F'\ 8d	.	16b-/LL] 16dd]	.
.	.	16f/ 16cc	.
8D'\J 8B-	.	16d/ 16b-	.
.	.	16f/JJ 16cc	.
=16	=16	=16	=16
*ped	*	*	*
8BBB-\L 8BB-	.	8.b-\L) 8.dd	.
8F\ 8d	.	.	.
.	.	(16cc\Jk 16ee-	.
8B-\ 8f	.	[2dd\) [2ff	.
*Xped	*	*	*
8F\J 8d	.	.	.
8B-/L 8f	.	.	.
16BBB-/L 16BB-	.	.	.
16AAA/JJ 16AA	.	.	.
=17	=17	=17	=17
*ped	*	*	*
8GGG/L 8GG	.	16dd\LL] 16ff]	<
.	.	(16cc\ 16ee-	.
*Xped	*	*	*
8G/J 8d	.	16b-\ 16dd	.
.	.	16a\JJ 16cc#X	.
8B-\L 8g	.	8b-\) 8dd	.
16GGG/L 16GG	.	4d^/ 4b- 4dd	[
16FFF#X/JJ 16FF#X	.	.	.
8GGG/L 8GG	.	.	.
*ped	*	*	*
8GGG#X/J 8GG#X	.	[8b-\ [8dd [8bb-	f
!!LO:LB:g=original	!	!	!
=18	=18	=18	=18
*	*	*^	*
*xywh-3:283,407,3675,961	*	*xywh-3:283,407,3675,961	*xywh-3:283,407,3675,961	*
*Xped	*	*	*	*
8AAA/ 8AA	.	8dd/L] 8bb-]	8b-\L]	>
(8A\L 8c#X 8en	.	(16cc#X/L 16aa	[8a\J	.
.	.	16een/JJ 16gg	.	.
8d\J) 8f	.	4.a\]) 4.dd 4.ff	4.ryy	.
8DD'/L 8D	.	.	.	.
8FF'/ 8F	.	.	.	.
8BBBn'/J 8BBn	.	(16ee-X/LL	8f\ 8a-X	.
.	.	16dd/JJ	.	]
*	*	*v	*v	*
=19	=19	=19	=19
*ped	*	*	*
8CC/ 8C	.	(16e-/LL) 16g 16ee-	.
.	.	16dd/JJ 16ff	.
*Xped	*	*	*
(16c\LL 16e-	.	4ee-\) 4gg	p
16d\J 16f	.	.	.
8e-\J) 8g	.	.	.
8CC'/L 8C	.	(16a/LL 16cc	.
.	.	16g/JJ 16b-	.
8EE-'/ 8E-	.	4f#X/) 4a	.
8DD'/J 8D	.	.	.
=20	=20	=20	=20
!LO:TX:b:i:t=simile	!	!	!
8GGG/L 8GG	.	(<16g/LL 16b-	.
.	.	16a/JJ 16cc	.
(16G/L 16B-	.	4b-\) 4dd	.
16A/JJ 16c	.	.	.
8B-\L) 8d	.	.	.
8GGG'/ 8GG	.	(16en/LL 16g	.
.	.	16d/JJ 16f	.
8BBB-'/ 8BB-	.	4c#X/) 4e	.
8AAA'/J 8AA	.	.	.
=21	=21	=21	=21
!	!LO:HP:a:t=poco cresc.	!	!
!	!	!	!LO:HP:a
8DD/ 8D	<	(16d/LL 16f	<
.	.	16en/JJ 16g	[[
16D\LL 16d	.	4f/) 4a	.
16C#X\JJ 16c#X	.	.	.
8D\L 8d	.	.	.
(8D-X^\ 8d-X	.	(16e/LL 16g	.
.	.	16f/JJ 16a	.
8Cn\) 8cn	.	8g/L) 8b-	.
8CC'\J 8C	.	(16f/L 16a	.
.	.	16e/JJ) 16g	.
!!LO:LB:g=original	!	!	!
=22	=22	=22	=22
*xywh-3:155,1280,3822,853	*	*xywh-3:155,1280,3822,853	*
8FF/ 8F	.	(16f/LL 16a	<
.	.	16g/JJ 16b-	.
16F\LL 16f	.	4a/) 4cc	[
16En\JJ 16en	.	.	.
8F\ 8f	.	.	.
(8GG-X^/L 8G-X	.	(16a\LL 16cc	.
.	.	16b-\JJ 16dd	.
8FF/J) 8F	.	8cc\L) 8ee-	.
8FFF/ 8FF	.	(16b-\L 16dd	.
.	.	16a\JJ 16cc	.
=23	=23	=23	=23
*ped	*	*	*
8BBB-/ 8BB-	.	8b-/L) 8dd	mf
(16D\LL 16B-	.	(16d/L 16b-	<
16F\JJ 16c	.	16f/JJ 16cc	.
8B-\L) 8d	.	([4b-\) [4dd	[
*Xped	*	*	*
8FF'\ 8F	.	.	.
8BB-'\ 8B-	.	16b-/LL] 16dd]	.
.	.	16f/ 16cc	.
8FF'\J 8F	.	16d/ 16b-	.
.	.	16f/JJ 16cc	.
=24	=24	=24	=24
*ped	*	*	*
8BBB-/L 8BB-	.	8.b-\L) 8.dd	<
(<16B-/L 16d	.	.	.
*Xped	*	*	*
16c/JJ 16e-	.	(16cc\Jk 16ee-	.
8d\L) 8f	.	([2dd\) [2ff	[[
8FF\J 8F	.	.	.
8BB-/L 8B-	.	.	.
16BBB-/L 16BB-	.	.	.
16AAA/JJ 16AA	.	.	.
=25	=25	=25	=25
*^	*	*	*
*ped	*	*	*	*
8GGG/ 8GG	8ryy	.	16dd\LL] 16ff]	.
.	.	.	16cc\ 16ee-	.
*Xped	*	*	*	*
(16f/LL	4G\ 4B-	.	16b-\ 16dd	.
16e-/JJ	.	.	16a\JJ 16cc#X	.
8d/)	.	.	8b-\) 8dd	.
16GGG/LL 16GG	16ryy	.	4d/ 4b- 4dd	f
16FFF#X/JJ 16FF#X	16ryy	.	.	.
8GGG/L 8GG	8ryy	.	.	.
*ped	*	*	*	*
8EEEn/J 8EEn	8ryy	.	[8b-\L [8dd [8gg [8bb-	.
*v	*v	*	*	*
!!LO:LB:g=original	!	!	!
=26	=26	=26	=26
*	*	*^	*
*xywh-3:136,1961,3681,866	*xywh-3:136,1961,3681,866	*xywh-3:136,1961,3681,866	*xywh-3:136,1961,3681,866	*xywh-3:136,1961,3681,866
*Xped	*	*	*	*
8AAA/ 8AA	.	8b-\J] 8dd] 8gg] 8bb-]	8ryy	.
(8A\L 8c#X 8en	.	(16cc#X/LL 16aa	[8a\L	.
.	.	16een/J 16gg	.	.
8d\J) 8f	.	8dd/J) 8ff	8a\J]	.
16DD/LL 16D	.	4A/ 4f 4a	4ryy	sfz
16CC#X/JJ 16C#X	.	.	.	.
8DD/L 8D	.	.	.	.
16DD-X/L 16D-X	.	(8f^/ 8a	16Bn\LL	.
16CCn/JJ 16Cn	.	.	16c\JJ	.
=27	=27	=27	=27	=27
*^	*	*	*	*
*ped	*	*	*	*	*
8CC-X/ 8C-X	8ryy	.	8f/) 8a-X	8d-X\	.
*clefG2	*	*	*	*	*
16d-X'/LL 16f	4c\	.	[8ff^/	16a-'\LL	sfz
16en'/J	.	.	.	16g'\JJ	.
8f'/J	.	.	16ff/LL]	8a-\	<
.	.	.	16ee-/	.	.
*Xped	*	*	*	*	*
(>16f/LL	4c\	.	16dd-X/	4a-\	.
16e-X/J	.	.	16ee-/JJ	.	.
8d-X/J)	.	.	8ff\L	.	.
*clefF4	*	*	*	*	*
8C-X\ 8D-X 8c-X	8ryy	.	16g-X\L 16ee- 16gg-X	16ryy	.
.	.	.	16a-X\JJ 16ff 16aa-X	16ryy	[
=28	=28	=28	=28	=28	=28
*ped	*	*	*	*	*
8FF-X/ 8D-X 8F-X	8ryy	.	8b-\ 8gg-X 8bb-	8ryy	<
*clefG2	*	*	*	*	*
16g-X'/LL 16b-	4f-X\	.	[8bb-^/L	16dd-X'\LL	.
16an'/J	.	.	.	16cc'\J	.
8b-'/J	.	.	16bb-/L]	8dd-\J	.
.	.	.	16aa-X/	.	.
*Xped	*	*	*	*	*
*clefF4	*	*	*	*	*
(16B-/LL	4F-X\ 4d-X	.	16g-X/ 16gg-X	16ryy	.
16A-X/J	.	.	16f/JJ 16ff	16ryy	.
8G-X/J)	.	.	16g-\LL 16gg-	16ryy	.
.	.	.	16a\ 16aa-	16ryy	.
((8EEEn/ 8EEn	8r	.	16b-\ 16bb-	8gg-/	.
.	.	.	16cc\JJ 16ccc	.	.
*v	*v	*	*	*	*
!!LO:LB:g=original	!	!	!	!
=29	=29	=29	=29	=29
*xywh-3:117,2681,3701,853	*	*xywh-3:117,2681,3701,853	*xywh-3:117,2681,3701,853	*xywh-3:117,2681,3701,853
*ped	*	*	*	*
8FFF/L)) 8FF	.	[4dd\ [4ff [4bb- [4ddd	4ryy	f
(16D/L 16B-	.	.	.	.
16F/JJ 16c	.	.	.	.
8B-\) 8d	.	16dd\LL] 16ff] 16bb-] 16ddd]	16ryy	.
.	.	16cc\ 16ccc	16ryy	<
*Xped	*	*	*	*
4F\ 4B- 4d	.	16b-\ 16bb-	4bb-/	.
.	.	16cc\JJ 16ccc	.	.
.	.	8dd\L 8ddd	.	.
8B-\ 8d 8a-X	.	(16dd\L 16ddd	[>8bb-/	.
.	.	16ff\JJ 16fff	.	[
=30	=30	=30	=30	=30
*ped	*	*	*	*
8F:\ 8B-: 8e-: 8g:	.	8ee-\L) 8bb-] 8eee-	8ryy	.
8r	.	16g\L 16gg	16ryy	p
.	.	16a\JJ 16aa	16ryy	.
*Xped	*	*	*	*
8r	.	(4ccc/	8cc\L	.
(8FFF/L 8FF	.	.	8ee-\ 8aa	.
8BBB-/J) 8BB-	.	8bb-/)	8b-\J 8dd 8ff	.
8r	.	8r	8ryy	.
=31	=31	=31	=31	=31
*^	*	*	*	*
8DD/ 8AA 8F#X	8ryy	.	8a\ 8dd 8ff#X 8aa	8ryy	f
4DD^/ 4D	4ryy	.	4d^/	4ryy	.
4D/	24FF#X\LL	.	4d/	(<24A\LL	<
.	24GG\	.	.	24B-\	.
.	24AA\JJ	.	.	24c\JJ)	.
.	8GG\L	.	.	8B-\L	.
[8D/	8C\J	.	[8d/	8A\J	.
=32	=32	=32	=32	=32	=32
4.D/]	(8.BB-\L	.	4.d/]	(8.G\L	[
.	16AA\Jk	.	.	16A\Jk	.
.	8GG\L)	.	.	8B-\L)	.
[4.D/	(24BB-\L	.	[4.d/	(24G\L	>
.	24AA\	.	.	24A\	.
.	24GG\JJ	.	.	24B-\JJ	.
.	8FF\L)	.	.	8A\L)	.
.	8EE-'\J	.	.	8G\J	.
*v	*v	*	*	*	*
=33	=33	=33	=33	=33
*ped	*	*	*	*
8DD/ 8D]	.	8.F#X/L 8.d]	[4d\	] p
4D\	.	.	.	.
.	.	((16G/Jk 16en	.	.
*Xped	*	*	*	*
.	.	8A/)) 8d] 8f#X	8ryy	.
4D\	.	8r	8ryy	.
.	.	((>4e-X^/ 4g	[4d\	.
[8D\	.	.	.	.
!!LO:LB:g=original	!	!	!	!
=34	=34	=34	=34	=34
*xywh-3:123,3465,3802,624	*	*xywh-3:123,3465,3802,624	*xywh-3:123,3465,3802,624	*
8D\]	.	8.f#X/L)) 8.a	4d\]	<
4D\	.	.	.	.
.	.	(<16g/Jk 16b-	.	.
!	!LO:HP:a	!	!	!
.	<	2a/) 2cc	4ryy	[
(24D\LL	.	.	.	.
24E-\	.	.	.	.
24F\JJ	.	.	.	.
8E-\L)	.	.	4ryy	.
8D'\J	[	.	.	.
*	*	*v	*v	*
=35	=35	=35	=35
*^	*	*	*
!LO:TX:t=P:problem= 8GG zapisana z chorągiewką	!	!	!	!
!LO:N:vis=2	!	!	!LO:TX:b:i:t=dolce	!
8GG/	[2.GG\	.	(8.g/L 8.b-	.
4D/	.	.	.	.
.	.	.	16a/Jk 16cc	.
.	.	.	8.b-\L 8.dd	.
4D/	.	.	.	.
.	.	.	16a\Jk 16cc#X	.
.	.	.	8b-\L) 8dd	.
[8D/	.	.	(16a\L 16ff	.
.	.	.	16g\JJ 16ee-	.
=36	=36	=36	=36	=36
8D/]	4GG\_	.	8.f#X/L) 8.dd	.
4D/	.	.	.	.
.	.	.	(16e-/Jk 16g	.
.	8GG\]	.	8d/L) 8f#	.
(24D/LL	8r	.	8f#'/ 8a	<
24E-/	.	.	.	.
24F/JJ	.	.	.	.
8E-/L)	4r	.	8g'/ 8b-	.
8D'/J	.	.	8a'/J 8cc	[
=37	=37	=37	=37	=37
!LO:TX:t=P:problem= 8GG zapisana z chorągiewką	!	!	!	!
!LO:N:vis=2	!	!	!	!
8GG/	[2.GG\	.	(16g\LL 16b-	<
.	.	.	16a\ 16cc	.
4D/	.	.	16b-\ 16dd	.
.	.	.	16a\JJ 16cc#X	.
.	.	.	8b-\L) 8dd	.
4D/	.	.	(16a\L 16ff	.
.	.	.	16ccn\JJ 16ee-	.
.	.	.	8b-\L) 8dd	.
[8D/	.	.	(16b-\L 16gg	.
.	.	.	16cc\JJ 16aa	[[
*v	*v	*	*	*
=38	=38	=38	=38
8GG/] 8D/]	.	8dd\) 8bb-	.
(24F#X\LL	.	(24f#X/LL	p
24G\	.	24g/	.
24A\JJ	.	24a/JJ	.
8G\L)	.	8g/)	.
(24G\L	.	(24g\LL 24gg	f
24A\	.	24a\ 24aa	.
24B-\JJ	.	24b-\JJ 24bb-	.
8G\L)	.	8g\L) 8gg	.
8Fn'\J	.	8fn'\J 8ffn	.
!!LO:LB:g=original	!	!	!
=39	=39	=39	=39
*^	*	*^	*
*xywh-3:219,4038,3841,974	*xywh-3:219,4038,3841,974	*	*xywh-3:219,4038,3841,974	*xywh-3:219,4038,3841,974	*
*ped	*	*	*	*	*
8E-\	8ryy	.	8e-/ 8ee-	8ryy	.
4EE-^/ 4E-^	4ryy	.	4e-^>/	4ryy	ff
*Xped	*	*	*	*	*
4E-/	(24GG\LL	.	4e-/	24B-\LL	<
.	24AA-X\	.	.	24c\	.
.	24BB-\JJ	.	.	24d-X\JJ	.
.	8AA-\L)	.	.	8c\L	.
[8E-/	8D-X\J	.	[8e-/	8B-\J	.
=40	=40	=40	=40	=40	=40
4.E-/]	(<8.C\L	.	4.e-/]	(8.A-X\L	[
.	16BB-\Jk	.	.	16B-\Jk	.
.	8AA-X/L)	.	.	8c\L)	.
8ryy	(24D-X/L	.	(8e-/	24G\L	>
.	24C/	.	.	24A-\	.
.	24BB-/JJ	.	.	24B-\JJ	.
8AA-/L)	4ryy	.	4en/)	8c\L	.
8GG-X'/J	.	.	.	8B-\J	]
*v	*v	*	*	*	*
=41	=41	=41	=41	=41
*ped	*	*	*	*
8FF/	.	8.An/L 8.f	[4f\	p
4F\	.	.	.	.
.	.	(16B-/Jk 16g	.	.
*Xped	*	*	*	*
.	.	8c/) 8f] 8a	4ryy	.
4F\	.	8r	.	.
.	.	(4g-X/ 4b-	[4f\	.
[8F\	.	.	.	.
=42	=42	=42	=42	=42
8F\]	.	8.a/L) 8.cc	4f\_	<
4F\	.	.	.	.
.	.	(16b-/Jk 16dd-X	.	.
.	.	2cc/) 2ee-	8f\]	.
!	!LO:HP:a	!	!	!
(24F\LL	<	.	8r	[
24G-X\	.	.	.	.
24A-X\JJ	.	.	.	.
8G-\L)	.	.	4r	.
8F'\J	[	.	.	.
!!LO:PB:g=original	!	!	!	!
=43	=43	=43	=43	=43
*^	*	*	*	*
*xywh-4:458,377,3655,947	*xywh-4:458,377,3655,947	*	*xywh-4:458,377,3655,947	*xywh-4:458,377,3655,947	*
!LO:N:vis=2	!	!	!LO:TX:b:i:t=dolce	!	!
8BB-/	[2BB-\	.	(8.b-\L 8.dd-X	2ryy	.
4F/	.	.	.	.	.
.	.	.	16cc\K 16ee-	.	.
.	.	.	8.dd-\ 8.ff	.	.
[8F/L	.	.	.	.	.
.	.	.	16cc\Jk 16een	.	.
8F/J]	8BB-\]	.	8ff/L)	8dd-\L	.
8EE-/ 8E-	8ryy	.	16aa-X/L	8b-\J 8dd-	.
.	.	.	16gg-X/JJ	.	.
=44	=44	=44	=44	=44	=44
!	!	!	!LO:TX:b:i:t=marc.	!	!
8AA-X\ 8A-X	8ryy	.	(4cc/ 4ff	8.a-X\L	.
(16c/LL	4G-X\ 4A-	.	.	.	.
!	!	!LO:HP:b	!	!	!
16B-/JJ	.	<	.	(16g\Jk	.
8c/L)	.	.	[4cc/) [4ee-X	8.a-\L)	.
(16c/L	4G-\ 4A-	.	.	.	.
16f/JJ	.	.	.	16g\Jk	.
8e-/L)	.	.	8cc/L] 8ee-]	8a-\	.
8c'/J 8e-	8G-\ 8A-	[	16f'/L 16ff	8cc\	.
.	.	.	16g-X'/JJ 16gg-X	.	.
=45	=45	=45	=45	=45	=45
8FF/ 8F	8ryy	.	[2a-X\ [2aa-X	8dd/	<
(16d-X/LL	4F\ 4A-X	.	.	8ryy	.
16c/JJ	.	.	.	.	.
8d-/L)	.	.	.	4ryy	.
(16d-/L	4F\ 4A-	.	.	.	.
16e-/JJ	.	.	.	.	.
8f/L)	.	.	8a-\L] 8aa-]	8ryy	.
8d-:/J 8gn:	8F-X:\	.	16cc\L 16ccc	8ggn/	.
.	.	.	16b-\JJ 16bb-	.	.
=46	=46	=46	=46	=46	=46
8EE-/ 8E-	8ryy	.	[4a-X\ [4gg-X [4aa-X	4ryy	.
(16g-X/LL	4A-X\ 4c	.	.	.	.
16f/JJ	.	.	.	.	.
8g-/L)	.	.	8.a-\L] 8.gg-] 8.aa-]	8.ryy	.
(16g-/L	4A-\ 4c	.	.	.	.
16f/J	.	.	16a-\Jk 16aa-	16ryy	.
8e-/J)	.	.	16b-\LL 16bb-	16ryy	.
.	.	.	16cc\ 16ccc	16ryy	.
8A-'\ 8c 8g-	8ryy	.	16dd-X\ 16ddd-X	8aa-/	.
.	.	.	16ee-\JJ 16eee-	.	.
!!LO:LB:g=original	!	!	!	!	!
=47	=47	=47	=47	=47	=47
*xywh-4:432,1248,3706,832	*xywh-4:432,1248,3706,832	*	*xywh-4:432,1248,3706,832	*xywh-4:432,1248,3706,832	*
!	!	!	!LO:TX:t=P:problem=mixed beam	!	!
*ped	*	*	*	*	*
[4DD-X/ [4D-X	4ryy	.	8ff\L 8aa-X 8fff	4ryy	f
.	.	.	16F/L 16d-X	.	.
*Xped	*	*	*	*	*
.	.	.	16A-X/J 16e-	.	.
8DD-/] 8D-]	8ryy	.	8d-/J 8f	8ryy	.
*clefG2	*	*	*	*	*
(24dd-X/LL	[4.g-X\	.	(8fff/	(24bb-\LL	p
!	!	!	!	!LO:TX:i:b:t=dolce	!
24cc/	.	.	.	24ccc\	.
24b-/JJ	.	.	.	24ddd-X\JJ	.
8ee-/L 8gg-X	.	.	(4eee-/)	8ccc\L	.
8dd-/J 8ff	.	.	.	8bb-\J	.
*	*	*	*v	*v	*
=48	=48	=48	=48	=48
8cc/L) 8ee-	4g-X\]	.	4aa-X\)) 4aaa-X	.
(24cc/L	.	.	.	.
24dd-X/	.	.	.	.
24ee-/JJ	.	.	.	.
8dd-/L	2f\	.	(4aa-\ 4bb-	.
8cc/	.	.	.	.
8b-/	.	.	((4dd-X\) [4ddd-X	.
8a-X/J	.	.	.	.
=49	=49	=49	=49	=49
*	*	*	*^	*
*ped	*	*	*	*	*
!	!	!	!LO:TX:t=P:problem=mixed beam	!	!
8e-/) 8b- 8ee-	8ryy	.	8gg-X\L)) 8ddd-] 8ggg-X	4ryy	.
*clefF4	*	*	*	*	*
16B-/LL	4E-\	.	16d-X'/L 16g-X	.	f
*Xped	*	*	*	*	*
16An/J	.	.	16c'/J 16f	.	.
8B-/J	.	.	8d-'/J 8g-	8ryy	.
*clefG2	*	*	*	*	*
24b-/LL	[4.e-\	.	(8ddd/	(24gg-\LL	p
24a-X/	.	.	.	24aa-X\	.
24g-X/JJ	.	.	.	24bb-\JJ	.
8cc/L 8ee-	.	.	(4ccc/)	8aan\L	.
8b-/J 8dd-X	.	.	.	8gg-\J	.
*	*	*	*v	*v	*
=50	=50	=50	=50	=50
8a-X/L 8cc	4e-\]	.	4ff\)) 4fff	.
(24a-/L	.	.	.	.
24b-/	.	.	.	.
24cc/JJ	.	.	.	.
8b-/L	2d-X\	.	(4ff\ 4gg-X	.
8a-/	.	.	.	.
8g-X/	.	.	((4b-\) [4bb-	.
8f/J	.	.	.	.
!!LO:LB:g=original	!	!	!	!
=51	=51	=51	=51	=51
*	*	*	*^	*
*xywh-4:400,1984,3713,774	*xywh-4:400,1984,3713,774	*	*xywh-4:400,1984,3713,774	*xywh-4:400,1984,3713,774	*
*ped	*	*	*	*	*
!	!	!	!LO:TX:t=P:problem=mixed beam	!	!
8c/) 8g-X 8cc	8ryy	.	8ee-\L)) 8bb-] 8eee-	8ryy	.
*clefF4	*	*	*	*	*
*Xped	*	*	*	*	*
16G-X'/LL	4C\	.	16B-'/L 16e-	16ryy	f
16F'/J	.	.	16An'/J 16dn	16ryy	.
8G-'/J	.	.	8B-'/J 8e-	8ryy	.
*clefG2	*	*	*	*	*
(24g-X/LL	[4.c\	.	(8bb-/	(24ee-\LL	p
24f/	.	.	.	24ff\	.
24e-/JJ	.	.	.	24gg-X\JJ	.
8a/L 8cc	.	.	(4aa-X/)	8ff\L	.
8g-/J 8b-	.	.	.	8ee-\J	.
*	*	*	*v	*v	*
=52	=52	=52	=52	=52
8f/L) 8a-X	4c\]	.	4dd-X\)) 4ddd-X	.
(24f/L	.	.	.	.
24g-X/	.	.	.	.
24a-/JJ	.	.	.	.
8g-/L	(2B-\	.	(4dd-\	.
8f/	.	.	.	.
8e-/	.	.	4g-X\ 4gg-X	.
8d-X/J	.	.	.	.
=53	=53	=53	=53	=53
8An/)) 8c	8ryy	.	8f\) 8ff	.
*clefF4	*	*	*	*
*ped	*	*	*	*
4FF^/ 4F	4ryy	.	4ff^\ 4fff	f
*Xped	*	*	*	*
16B-/LL	[8En\L	.	16d-X/LL 16g-X	.
16A/JJ	.	.	16c/JJ 16f	.
8B-/L	8E\J]	.	8d-/L 8g-	.
(8B-/J	(8G-X\	.	8en/J (>8cc	>
=54	=54	=54	=54	=54
8F\)) 8A	8ryy	.	8f/)	.
*ped	*	*	*	*
4FF^/ 4F	4ryy	.	4ff^\ 4fff	] f
*Xped	*	*	*	*
16d-X'/LL	[8En\L	.	16g-X/LL 16b-X	p
16c'/J	.	.	16f/JJ 16a	.
8d-'/J	8E\J]	.	8g-'\L 8b-	.
*clefG2	*	*	*	*
(8c/ 8g-X 8b-	8ryy	.	([8cc\J 8een 8ccc	>
*v	*v	*	*	*
!!LO:LB:g=original	!	!	!
=55	=55	=55	=55
*xywh-4:394,2644,3642,825	*	*xywh-4:394,2644,3642,825	*
8f/) 8an	.	8cc\]) 8ff	.
*clefF4	*	*	*
*ped	*	*	*
4FF/ 4F	.	4ff^\ 4fff	] f
*Xped	*	*	*
16E-'\LL 16e-	.	16ee-'\LL 16eee-	.
16D'\JJ 16d	.	16dd'\JJ 16ddd	.
16C'\LL 16c	.	16cc'\LL 16ccc	.
16BB-'\ 16B-	.	16b-'\ 16bb-	.
16AA'\ 16A	.	16a'\ 16aa	.
16GG'\JJ 16G	.	16g'\JJ 16gg	.
=56	=56	=56	=56
8FF/ 8F	.	8f\ 8ff	<
*ped	*	*	*
16FFF/LL 16FF	.	4ff^\ 4fff	.
16GGG/JJ 16GG	.	.	.
16AAA/LL 16AA	.	.	.
*Xped	*	*	*
16BBB-/ 16BB-	.	.	.
16CC/ 16C	.	16ee-\LL 16eee-	.
16DD/JJ 16D	.	16dd\JJ 16ddd	.
16EE-/LL 16E-	.	16cc\LL 16ccc	.
16DD/ 16D	.	16b-\ 16bb-	.
16EE-/ 16E-	.	16a\ 16aa	.
16EEn/JJ 16En	.	16g\JJ 16gg	[[
=57	=57	=57	=57
8FF/L 8F	.	8f\L 8ff	>
16AA/L 16A	.	16a\L 16aa	.
16GG/JJ 16G	.	16g\JJ 16gg	.
8FF/L 8F	.	8f/L 8ff	.
16EE-/L 16E-	.	16e-/L 16ee-	.
16DD/JJ 16D	.	16d/JJ 16dd	.
8FF/L 8F	.	8f/L 8ff	.
16EE-/L 16E-	.	16e-/L 16ee-	.
16CC/JJ 16C	.	16c/JJ 16cc	]]
=58	=58	=58	=58
*ped	*	*	*
4BBB-/ 4BB-	.	8B-/L 8b-	.
.	.	(16d/L 16b-	p
.	.	16f/JJ) 16cc	.
8r	.	([4b-\ [4dd	.
*Xped	*	*	*
8D\L 8B-	.	.	.
8F\ 8d	.	16b-/LL] 16dd]	.
.	.	16f/ 16cc	.
8D\J 8B-	.	16d/ 16b-	.
.	.	16f/JJ 16cc	.
!!LO:LB:g=original	!	!	!
=59	=59	=59	=59
*xywh-4:387,3348,3610,736	*	*xywh-4:387,3348,3610,736	*
*ped	*	*	*
8BBB-\L 8BB-	.	8.b-\L) 8.dd	.
8F'\ 8d	.	.	.
.	.	(16cc\Jk 16ee-	.
*Xped	*	*	*
8B-'\ 8f	.	[2dd\) [2ff	.
8F'\J 8d	.	.	.
8B-'/L 8f	.	.	.
16BBB-/L 16BB-	.	.	.
16AAA/JJ 16AA	.	.	.
=60	=60	=60	=60
*ped	*	*	*
8GGG\L 8GG	.	16dd\LL] 16ff]	.
.	.	(16cc\ 16ee-	.
8G\ 8d	.	16b-\ 16dd	.
.	.	16a\JJ 16cc#X	.
*Xped	*	*	*
8B-\J 8g	.	8b-\) 8dd	.
16GGG/LL 16GG	.	4d^/ 4b- 4dd	.
16FFF#X/JJ 16FF#X	.	.	.
8GGG/L 8GG	.	.	.
*ped	*	*	*
8GGG#X/J 8GG#X	.	[8b-^\ [8dd [8bb-	f
=61	=61	=61	=61
*	*	*^	*
*Xped	*	*	*	*
8AAA/ 8AA	.	8bb-/L]	8b-\L] 8dd]	.
(8A\L 8c#X 8en	.	(16aa/L	[8a\J 8cc#X	>
.	.	16een/JJ 16gg	.	.
8d\J) 8f	.	4.dd/) 4.ff	4.a\]	.
8DD'/L 8D	.	.	.	.
8FF'/ 8F	.	.	.	.
8BBBn'/J 8BBn	.	(16ee-X/LL	8f\ 8a-X	.
.	.	16dd/JJ)	.	.
*	*	*v	*v	*
=62	=62	=62	=62
*ped	*	*	*
8CC'/L 8C	.	(16e-/LL 16g 16ee-	] p
.	.	16dd/JJ 16ff	.
(16c/L 16e-	.	4ee-\) 4gg	.
16d/JJ 16f	.	.	.
*Xped	*	*	*
!LO:TX:t=P:problem=mixed beam	!	!	!
8e-\L) 8g	.	.	.
8CC'/ 8C	.	(16a/LL 16cc	.
.	.	16g/JJ 16b-	.
8EE-'/ 8E-	.	4f#X/) 4a	.
8DD'/J 8D	.	.	.
!!LO:LB:g=original	!	!	!
=63	=63	=63	=63
*xywh-4:394,3988,3822,1011	*	*xywh-4:394,3988,3822,1011	*
*ped	*	*	*
8GGG/L 8GG	.	(16g/LL 16b-	.
.	.	16a/JJ 16cc	.
(16G/L 16B-	.	4b-\) 4dd	.
*Xped	*	*	*
16A/JJ 16c	.	.	.
8B-/L) 8d	.	.	.
8GGG'/ 8GG	.	(16en/LL 16g	.
.	.	16d/JJ 16f	.
8BBB-'/ 8BB-	.	4c#X/) 4e	.
8AAA'/J 8AA	.	.	.
=64	=64	=64	=64
*ped	*	*	*
8DD'/ 8D	.	(16d/LL 16f	<
.	.	16en/JJ 16g	.
*Xped	*	*	*
16D\LL 16d	.	4f/) 4a	.
16C#X\JJ 16c#X	.	.	.
8D\L 8d	.	.	.
(8D-X^\J 8d-X	.	(16e/LL 16g	.
.	.	16f/JJ 16a	.
8Cn/L) 8cn	.	8g/L) 8b-	.
8CC'/J 8C	.	(16f/L 16a	.
.	.	16e/JJ 16g	.
=65	=65	=65	=65
*ped	*	*	*
8FFF/L 8FF	.	16f/LL) 16a	<
.	.	16g/JJ 16b-	.
16F\L 16f	.	4a\ 4cc	.
*Xped	*	*	*
16En\JJ 16en	.	.	.
8F\L 8f	.	.	.
(8GG-X^\J 8G-X	.	(16a\LL 16cc	.
.	.	16b-\JJ 16dd	.
8FF/L) 8F	.	8cc\L 8ee-	.
8FFF/J 8FF	.	16b-\L 16dd	.
.	.	16a\JJ 16cc	[[
=66	=66	=66	=66
*	*	*^	*
*ped	*	*	*	*
8BBB-/L 8BB-	.	8b-\L) 8dd	8ryy	.
(<16D/L 16B-	.	16b-\L 16ff 16bb-	16ryy	ff
16F/JJ 16c	.	16cc\JJ 16ff 16ccc	16ryy	.
8B-\L) 8d	.	[4dd/ [4bb- [4ddd	8dd\L	.
*Xped	*	*	*	*
8FF\ 8F	.	.	(16B-\L 16d	.
.	.	.	16c\JJ 16f	.
8BB-\ 8B-	.	16dd/LL] 16bb-] 16ddd]	8d\) 8b-	.
.	.	16cc/ 16ff 16ccc	.	.
8FF\J 8F	.	16b-/ 16dd 16bb-	8r	.
.	.	16cc/JJ 16ff 16ccc	.	.
!!LO:LB:g=original	!	!	!	!
=67	=67	=67	=67	=67
*^	*	*	*	*
*xywh-5:212,394,3790,1114	*xywh-5:212,394,3790,1114	*	*xywh-5:212,394,3790,1114	*xywh-5:212,394,3790,1114	*
*ped	*	*	*	*	*
8BBB-/ 8BB-	8ryy	.	8.dd\L 8.bb- 8.ddd	4ryy	.
(16B-/LL 16d	[8F\L	.	.	.	.
*Xped	*	*	*	*	*
16c/JJ 16e-	.	.	16ee-\Jk 16ccc 16eee-	.	.
8ryy	8F\J]) 8d 8f	.	[2ff/ [2ddd [2fff	8ff\L	.
8FF/L 8F	4.ryy	.	.	(16d\L 16b-	.
.	.	.	.	16f\JJ 16cc	.
8BB-/ 8B-	.	.	.	8b-\) 8dd	.
16BBB-/L 16BB-	.	.	.	8r	.
16AAA/JJ 16AA	.	.	.	.	.
*	*	*	*v	*v	*
=68	=68	=68	=68	=68
*ped	*	*	*	*
8GGG/ 8GG	8ryy	.	16ff\LL] 16ddd] 16fff]	.
.	.	.	16ee-\ 16ccc 16eee-	.
*Xped	*	*	*	*
(16f/LL	4G\ 4B-	.	16dd\ 16bb- 16ddd	.
16e-/J	.	.	16cc#X\JJ 16aa 16ccc#X	.
8d/J)	.	.	8dd\ 8bb- 8ddd	.
16GGG/LL 16GG	8ryy	.	4dd^\ 4bb- 4ddd	.
16FFF#X/JJ 16FF#X	.	.	.	.
8GGG/L 8GG	4ryy	.	.	.
*	*	*	*8va	*
*	*	*	*ped	*
8EEEn/J 8EEn	.	.	[8bb-\ [8ddd [8ggg [8bbb-	sfz
*v	*v	*	*	*
=69	=69	=69	=69
*	*	*^	*
*	*	*Xped	*	*
8AAA/ 8AA	.	8bb-\L] 8ddd] 8ggg] 8bbb-]	4ryy	>
(8A\L 8c#X 8en	.	16aa\L 16ccc#X 16aaa	.	.
.	.	16gg\JJ 16eeen 16ggg	.	.
8d\J) 8f	.	8ff\ 8ddd 8fff	8ryy	.
*	*	*v	*v	*
*	*	*X8va	*
*	*	*^	*
16DD/LL 16D	.	4A^/ 4f 4a	4ryy	]
16CC#X/JJ 16C#X	.	.	.	.
8DD/L 8D	.	.	.	.
16DD-X/L 16D-X	.	([8f/ 8a	(16Bn\LL	.
16CCn/JJ 16Cn	.	.	16c\JJ	.
!!LO:LB:g=original	!	!	!	!
=70	=70	=70	=70	=70
*^	*	*	*	*
*xywh-5:219,1375,3802,809	*xywh-5:219,1375,3802,809	*	*xywh-5:219,1375,3802,809	*xywh-5:219,1375,3802,809	*
*	*	*	*ped	*	*
8CC-X/ 8C-X	8ryy	.	8d-X/)) 8f] 8a-X	8r	.
*clefG2	*	*	*	*	*
(16d-X'/LL 16f	4c-X\	.	([8dd-X^/L [8ff	16a-'\LL	sfz
16en'/J	.	.	.	16g'\J	.
8f'/J)	.	.	16dd-/L] 16ff]	8a-'\J	.
.	.	.	16ee-X/)	.	.
*	*	*	*Xped	*	*
16f/LL	4c-\	.	16dd-X/	N[4a-\	.
16e-X/J	.	.	16ee-/JJ	.	.
8d-X/J	.	.	8a-\LN] 8ff	.	.
*clefF4	*	*	*	*	*
8C-X\ 8D-X 8c-	8ryy	.	16g-X\L 16ee- 16gg-X	8ryy	.
.	.	.	16a-\JJ 16ff 16aa-X	.	.
=71	=71	=71	=71	=71	=71
*ped	*	*	*	*	*
8FF-X/ 8D-X 8F-X	8ryy	.	8b-\ 8gg-X 8bb-	8ryy	.
*clefG2	*	*	*	*	*
16g-X'/LL 16b-	4f-X\	.	[8gg-/ [8bb-	16dd-X'\LL	sfz
16an'/J	.	.	.	16ccn'\JJ	.
*Xped	*	*	*	*	*
8b-'/J	.	.	16gg-/LL] 16bb-]	8dd-\	.
.	.	.	16aa-X/	.	.
*clefF4	*	*	*	*	*
(16B-/LL	4F-X\ 4d-X	.	16g-X/ 16gg-X	4dd-\	.
16A-X/J	.	.	16f/JJ 16ff	.	.
8G-X/J)	.	.	16g-\LL 16gg-	.	.
.	.	.	16a-X\ 16aa-X	.	.
((8EEEn/ 8EEn	8ryy	.	16b-\ 16bb-	8gg-/	.
.	.	.	16cc\JJ 16ccc	.	.
*v	*v	*	*	*	*
=72	=72	=72	=72	=72
*ped	*	*	*	*
8FFF/L)) 8FF	.	([4dd\ [4ff [4bb- [4ddd	4ryy	p <
(16D/L 16B-	<	.	.	.
16F/JJ 16c	.	.	.	.
8B-\) 8d	.	16dd\LL] 16ff] 16bb-] 16ddd]	4ryy	.
.	.	16cc\) 16ccc	.	.
*Xped	*	*	*	*
4F\ 4B- 4d	[	16b-\ 16bb-	.	.
.	.	16cc\JJ 16ccc	.	.
.	.	8dd\L 8ddd	8ryy	.
8Bn\ 8d 8a-X	.	16dd\L	8bb-/	.
.	.	16ff\JJ 16fff	.	.
*	*	*v	*v	*
!!LO:LB:g=original	!	!	!
=73	=73	=73	=73
*xywh-5:149,2006,3681,834	*	*xywh-5:149,2006,3681,834	*
*ped	*	*	*
8FFF/L 8FF	.	[4ee-\ [4gg [4ccc [4eee-	<
(16E-/L 16c	.	.	.
16G/JJ 16d	.	.	.
8c\) 8e-	.	16ee-\LL] 16gg] 16ccc] 16eee-]	[
.	.	16dd\ 16ddd	.
*Xped	*	*	*
4G^\ 4c 4e-	.	16cc\ 16ccc	.
.	.	16dd\JJ 16ddd	.
.	.	8ee-\L 8eee-	.
8A\ 8c#X 8g	.	16aa\L 16aaa	.
.	.	16gg\JJ 16ggg	.
=74	=74	=74	=74
*ped	*	*	*
8FFF/L 8FF	.	[4ff\ [4aa-X [4ddd [4fff	<
(16D/L 16B-	.	.	.
16F/JJ 16c	.	.	.
8B-\L) 8d	.	16ff\LL] 16aa-] 16ddd] 16fff]	[ <
.	.	16ee-\ 16eee-	.
*Xped	*	*	*
(8B-\ 8f	.	16dd\ 16ddd	.
.	.	16cc\JJ 16ccc	.
8e-\ 8g	.	16b-\LL 16bb-	.
.	.	16a\ 16aa-	.
8f\J 8a-X	.	16cc\ 16ccc	.
.	.	16b-\JJ 16bb-	[[
=75	=75	=75	=75
*	*	*^	*
*ped	*	*	*	*
8F:\) 8B-: 8e-: 8g:	.	8ee-\L 8gg 8eee-	4ryy	.
8r	.	16g'\L 16gg	.	p
*Xped	*	*	*	*
.	.	16a'\JJ 16aa	.	.
8r	.	(4ccc/	8cc\L	.
(8FFF/L 8FF	.	.	8ee-\ 8aa	.
8BBB-/J) 8BB-	.	8bb-/)	8b-\J 8dd 8ff	.
8r	.	16B-/LL 16b-	8ryy	.
.	.	16B-/JJ 16b-	.	.
*	*	*v	*v	*
=76	=76	=76	=76
4r	.	[2B-/ [2b-	<
*tremolo	*	*	*
*ped	*	*	*
32BBB-/LLL	.	.	.
32BB-/	.	.	.
32BBB-/	.	.	.
32BB-/	.	.	.
32BBB-/	.	.	.
32BB-/	.	.	.
32BBB-/	.	.	.
32BB-/	.	.	.
32BBB-/	.	8B-/L] 8b-]	.
32BB-/	.	.	.
32BBB-/	.	.	.
32BB-/	.	.	.
32BBB-/	.	16B-/L 16b-	.
32BB-/	.	.	.
32BBB-/	.	16B-/JJ 16b-	.
32BB-/JJJ	.	.	.
=77	=77	=77	=77
32BBB-/LLL	.	[2B-/ [2b-	.
32BB-/	.	.	.
32BBB-/	.	.	.
32BB-/	.	.	.
32BBB-/	.	.	.
32BB-/	.	.	.
32BBB-/	.	.	.
32BB-/	.	.	.
32BBB-/	.	.	.
32BB-/	.	.	.
32BBB-/	.	.	.
32BB-/	.	.	.
32BBB-/	.	.	.
32BB-/	.	.	.
32BBB-/	.	.	.
32BB-/	.	.	.
32BBB-/	.	8B-/L] 8b-]	.
32BB-/	.	.	.
32BBB-/	.	.	.
32BB-/	.	.	.
32BBB-/	.	16B-/L 16b-	.
32BB-/	.	.	.
32BBB-/	.	16B-/JJ 16b-	[[
32BB-/JJJ	.	.	.
!!LO:LB:g=original	!	!	!
=78	=78	=78	=78
*xywh-5:149,2739,3720,738	*	*xywh-5:149,2739,3720,738	*
8BBB-/ 8BB-	.	8B-/ 8b-	.
*Xped	*	*	*
8r	.	8r	.
(4D-X\	.	(4d-X/	p
4AA-X/	.	4A-X/	.
=79	=79	=79	=79
4BB-/	.	4B-/	.
4D-X\	.	4d-X/	.
4AA-X/)	.	4A-X/)	.
=80||	=80||	=80||	=80||
*k[b-e-a-d-g-c-]	*	*k[b-e-a-d-g-c-]	*
*^	*	*^	*
*ped	*	*	*	*	*
!	!	!	!LO:TX:b:i:t=dolce harmonioso	!	!
!	!	!	!LO:TX:a:i:t=molto tranquillo	!	!
8GG-/L	[4GG-\	.	(4b-/	2B-\ 2g-	.
(16D-/L	.	.	.	.	.
16E-/JJ	.	.	.	.	.
8GG-/]) 8D-	8ryy	.	4dd-/	.	.
4d-\	8ryy	.	.	.	.
*Xped	*	*	*	*	*
.	4ryy	.	4c-/ 4f 4a-)	4ryy	.
8d-\	.	.	.	.	.
=81	=81	=81	=81	=81	=81
*ped	*	*	*	*	*
8GG-/L	[4GG-\	.	(4b-/	2B-\ 2g-	.
(16D-/L	.	.	.	.	.
16E-/JJ	.	.	.	.	.
8GG-/]) 8D-	8ryy	.	4dd-/	.	.
4d-\	8ryy	.	.	.	.
*Xped	*	*	*	*	*
.	4ryy	.	4c-/ 4f 4a-)	4ryy	.
8d-\	.	.	.	.	.
*	*	*	*v	*v	*
=82	=82	=82	=82	=82
*ped	*	*	*	*
8GG-/L	8ryy	.	4B-/ 4g- 4b-	<
8D-'/J	8ryy	.	.	.
*Xped	*	*	*	*
4B-/	(8G-\L	.	(4g-\ 4dd-	.
.	8F\	.	.	.
[4e-/	8E-\	.	[4b-\ [4gg-	.
.	8D-\J	.	.	.
=83	=83	=83	=83	=83
*	*	*	*^	*
4Cn\) 4e-]	4ryy	.	4b-\]) 4gg-]	4ryy	.
!	!	!	!LO:TX:t=P:problem= łuk kończy się na kresce taktowej	!	!
(<4F\ 4cn	4ryy	.	(8ff/L	4an\	.
.	.	.	8ee-/J	.	.
4d-:/	8BB-:\L	.	(4f/ [4b- [4dd-	4ryy	.
.	8AA-\J	.	.	.	.
*v	*v	*	*	*	*
!LO:LB:g=original	!	!	!	!
=84	=84	=84	=84	=84
*xywh-5:321,3363,3586,783	*xywh-5:321,3363,3586,783	*	*xywh-5:155,3363,3694,732	*
4GGn/)	.	4b-/]) 4dd-)]	8f-X\L	[ p
.	.	.	8f-\J	.
(8AA-/L	.	(8cc-/L	2e-\ 2a-	<
8BB-/J	.	8dd-/	.	.
[4C-/	.	8ee-/	.	.
.	.	8cc-/J	.	.
=85	=85	=85	=85	=85
*^	*	*	*^	*
*Xtremolo	*	*	*	*	*	*
8C-/L])	2ryy	.	8a-/L)	2f/	4e-\	.
(<8AA-/	.	.	(8cc-/J	.	.	.
8BB-/	.	.	8b-/L	.	8dn\L	.
8Dn/J	.	.	8a-/J	.	8f\J	.
[4B-/	8E-\L	.	8g-/L	8ryy	(<4e-\	.
.	8F\J	.	8a-/J	8ryy	.	[
*v	*v	*	*	*	*	*
*	*	*	*v	*v	*
=86	=86	=86	=86	=86
8G-\L) 8B-]	.	4d-X/)) 4e- 4b-	4ryy	<
(<8B-\	.	.	.	.
8A-\	.	(4e-/	2B-\ 2d-	sfz
8G-\	.	.	.	.
8F\	.	8f/L	.	.
8E-\J	.	8g-/J	.	.
=87	=87	=87	=87	=87
*^	*	*	*	*
2.D-/)	(2D-\	.	2c-/) 2a-	(4e-\	>
.	.	.	.	8f\L	.
.	.	.	.	8e-\	.
.	4DD-\)	.	(4f/ 4an	8d-\	.
.	.	.	.	8c-\J	.
=88	=88	=88	=88	=88	=88
*ped	*	*	*	*	*
8GG-/L	[4GG-\	.	(4b-/)	2B-\) 2g-	] p
(16D-/L	.	.	.	.	.
16E-/JJ	.	.	.	.	.
*Xped	*	*	*	*	*
8GG-/]) 8D-	8ryy	.	4dd-/	.	.
4d-\	8ryy	.	.	.	.
.	4ryy	.	4c-/) 4f 4a-	4ryy	.
8d-\	.	.	.	.	.
=89	=89	=89	=89	=89	=89
*ped	*	*	*	*	*
8GG-/L	[4GG-\	.	(4b-/	2B-\ 2g-	.
(16D-/L	.	.	.	.	.
16E-/JJ	.	.	.	.	.
*Xped	*	*	*	*	*
8GG-/]) 8D-	8ryy	.	4dd-/	.	.
4d-\	8ryy	.	.	.	.
.	4ryy	.	4c-/ 4f 4a-	4ryy	.
8d-\	.	.	.	.	.
*	*	*	*v	*v	*
!!LO:LB:g=original	!	!	!	!
=90	=90	=90	=90	=90
*xywh-5:308,4019,3599,987	*xywh-5:308,4019,3599,987	*	*xywh-5:308,4019,3599,987	*
*ped	*	*	*	*
8GG-/L	8ryy	.	4B-/) 4g- 4b-	.
8D-'/J	8ryy	.	.	.
*Xped	*	*	*	*
4B-/	(8G-\L	.	(4g-\ 4dd-	<
.	8F\	.	.	.
[4e-/	8E-\	.	[4b-\ [4gg-	.
.	8D-\J	.	.	.
=91	=91	=91	=91	=91
*	*	*	*^	*
4Cn\) 4e-]	4ryy	.	4b-\]) 4gg-]	4ryy	.
(<4F\ 4cn	4ryy	.	(8ff/L	4an\	[
.	.	.	8ee-/J	.	.
4d-:/	8BB-:\L	.	([4b-/) [4dd-	[4f\	.
.	8AA-\J	.	.	.	.
*v	*v	*	*	*	*
=92	=92	=92	=92	=92
*ped	*	*	*	*
[4GGn/)	.	8b-/L] 8dd-]	2.f\_	<
.	.	8ccn/J) 8ee-	.	.
*Xtremolo	*	*	*	*
*Xped	*	*	*	*
(8GG/L]	.	4dd-/ 4ff	.	.
8AA-/	.	.	.	.
8BB-/	.	(8b-/L 8dd-	.	.
8Cn/J	.	8a-/J 8cc	.	.
=93	=93	=93	=93	=93
*^	*	*	*^	*
*	*	*	*	*	*	*
2ryy	8D-\L)	.	8b-/L	4f\]	2.gn/	.
.	(8BB-\	.	8dd-/	.	.	.
.	8Cn\	.	8ccn/	8en\L	.	.
.	8En\	.	8b-/	8g\	.	.
8c-/L	8F\	.	8a-/	8f\	.	.
8A-/J	8A-\J	.	8cc-X/J	8e-X\J	.	.
*	*	*	*	*v	*v	*
=94	=94	=94	=94	=94	=94
4.B-/)	4r	.	8b-/L	4dn\	.
.	.	.	8a-/J	.	.
.	(4E-\	.	4g-/)	(4d-X\	.
8B--/	.	.	.	.	.
8A-/L	4AA-\)	.	(8f/L	4cn\)	>
8G-/J	.	.	8e-/J	.	.
*v	*v	*	*	*	*
*	*	*v	*v	*
=95	=95	=95	=95
*ped	*	*	*
(>[4DD-/ 4G-	.	(4cn/ 4a-	.
*Xped	*	*	*
8DD-/]) 8F	.	8d-/))	] p
(8DD-/L 8D-	.	8r	.
8FF/ 8F	.	4r	.
8EE-/J) 8E-	.	.	.
!!LO:PB:g=original	!	!	!
=96	=96	=96	=96
*xywh-6:439,448,3694,1049	*	*xywh-6:439,448,3694,1049	*
(>8qFF/	.	.	.
(4F\)	.	(4A-/ 4f 4a-	.
4G-\	.	4B-/ 4g- 4b-	.
4E-\	.	4G-/ 4e- 4g-	.
=97	=97	=97	=97
*^	*	*^	*
8D-\) 8F	8ryy	.	8A-/) 8f 8a-	8ryy	.
8r	8ryy	.	8r	8ryy	.
*ped	*	*	*	*	*
!LO:N:vis=2	!	!	!LO:N:vis=2	!	!
8A-/L	2AA-\ 2E- 2A-	.	8cc-/L	2c-\ 2e- 2a- 2cc-	sfz
16AAA-/L	.	.	16A-/L	.	<
16BBB-/JJ	.	.	16B-/JJ	.	.
*Xped	*	*	*	*	*
16CC-/LL	.	.	16c-/LL	.	.
16BBB-/	.	.	16B-/	.	.
16CC-/	.	.	16c-/	.	.
16DD-/JJ	.	.	16d-/JJ	.	.
*v	*v	*	*	*	*
*	*	*v	*v	*
=98	=98	=98	=98
(>8qGG-/	.	.	.
(4G-\)	.	(4B-/ 4g- 4b-	[ p
4A-\	.	4c-/ 4a- 4cc-	.
4F\	.	4A-/ 4f 4a-	.
=99	=99	=99	=99
*^	*	*^	*
8E-\) 8G-	8ryy	.	8B-/) 8b-	8ryy	.
8r	8ryy	.	8r	8ryy	.
!LO:N:vis=2	!	!	!	!LO:N:vis=2	!
8c-/L	2C-\ 2G- 2c-	.	2e-/ 2g- 2cc- 2ee-	8e-\L	sfz
!LO:TX:b:i:t=simile	!	!	!	!	!
16CC-/L	.	.	.	16c-\L	<
16DD-/JJ	.	.	.	16d-\JJ	.
16EE-/LL	.	.	.	16e-\LL	.
16DD-/	.	.	.	16d-\	.
16EE-/	.	.	.	16e-\	.
16FF/JJ	.	.	.	16f\JJ	[
*v	*v	*	*	*	*
*	*	*v	*v	*
=100	=100	=100	=100
*ped	*	*	*
(>8qBB-/	.	.	.
8B-\)	.	(4d-/ 4b- 4dd-	p
16r	.	.	.
(16GG-/	.	.	.
*Xped	*	*	*
16G-/LL	.	4e-/ 4cc- 4ee-	.
16GG-/)	.	.	.
(16GG-/	.	.	.
16GGG-/JJ	.	.	.
16GG-/LL)	.	4c-/) 4a- 4cc-	.
(16GG-/	.	.	.
16G-/)	.	.	.
(<16G-/JJ	.	.	.
!!LO:LB:g=original	!	!	!
=101	=101	=101	=101
*xywh-6:439,1414,3687,921	*	*xywh-6:439,1414,3687,921	*
*ped	*	*	*
8g-\)	.	(4d-/ 4b- 4dd-	.
16r	.	.	.
16GG-/	.	.	.
*Xped	*	*	*
(16G-/LL	.	4e-/ 4cc- 4ee-	.
16GG-/)	.	.	.
(16GG-/	.	.	.
16GGG-/JJ	.	.	.
16GG-/LL)	.	4c-/ 4a- 4cc-	.
(16GG-/	.	.	.
16G-/)	.	.	.
(16G-/JJ	.	.	.
=102	=102	=102	=102
16g-\LL)	.	8d-/) 8b- 8dd-	.
(16GG-\	.	.	.
16GG-\) 16G-	.	8r	.
16FF'\JJ 16F	.	.	.
*ped	*	*	*
!	!	!LO:TX:b:i:t=dolce	!
4EE-/ 4E-	.	4gg-\ 4bb- 4eee- (4ggg-	.
(4A-\ 4c- [4f	.	4aa-\ 4ccc- [4fff	.
*Xped	*	*	*
=103	=103	=103	=103
*^	*	*^	*
4f/]	[4G-\ [4B-	.	4fff/]	2gg-\ 2bb-	.
8e-/)	8G-\] 8B-]	.	4eee-/)	.	<
*clefG2	*	*	*	*	*
(16g-/LL	4.ryy	.	.	.	.
16f/JJ	.	.	.	.	.
16e-/LL	.	.	(4cc-\ 4ee- 4gg- 4ccc-	4ryy	.
16g-/	.	.	.	.	.
16f/	.	.	.	.	.
16e-/JJ	.	.	.	.	[
*v	*v	*	*	*	*
*	*	*v	*v	*
=104	=104	=104	=104
*ped	*	*	*
4B-/) 4f	.	2b-\) 2ddn 2ff 2bb-	<
*clefF4	*	*	*
4BBB-/ 4BB-	.	.	.
!	!	!LO:TX:i:b:t=poco a	!
*Xped	*	*	*
(4E-\ 4G- 4c-	.	(<[4e-/ 4g- (>4cc-	.
!!LO:LB:g=original	!	!	!
=105	=105	=105	=105
*	*	*^	*
*xywh-6:432,2272,3636,851	*	*xywh-6:432,2272,3636,851	*xywh-6:432,2272,3636,851	*
!	!	!LO:TX:i:b:t=poco	!	!
4BB-\) 4F 4B-	.	2f/ 2b-)	4e-\]	.
8BBB-/ 8BB-	.	.	4dn\)	<
(16B-\LL	.	.	.	.
16A-\JJ	.	.	.	.
16G-\LL	.	(4cc-\ 4ee- 4gg- 4ccc-	4ryy	.
16F\	.	.	.	.
16G-\	.	.	.	.
16E-\JJ	.	.	.	[
*	*	*v	*v	*
=106	=106	=106	=106
*ped	*	*	*
4D-\) 4A- 4d-	.	2dd-\) 2ff 2aa- 2ddd-	.
4DD-/ 4D-	.	.	.
(4G-\ 4B- 4e-	.	([4g-\ 4b- 4ee-	.
*Xped	*	*	*
=107	=107	=107	=107
*	*	*^	*
4D-\) 4A- 4d-	.	2a-/) 2dd-	(4g-\]	.
8DD-/L 8D-	.	.	4f\)	<
(16d-/L	.	.	.	.
16c-/JJ	.	.	.	.
16B-\LL	.	(4ee-\ 4gg- 4eee-	4ryy	.
16A-\	.	.	.	.
16B-\	.	.	.	.
16G-\JJ	.	.	.	.
*	*	*v	*v	*
=108	=108	=108	=108
*^	*	*	*
*ped	*	*	*	*
16D-/LL) 16A- 16d-	4ryy	.	2ff\) 2aa- 2ddd- 2fff	[
(16DD-/	.	.	.	.
16D-/)	.	.	.	.
16D-/JJ	.	.	.	.
16d-/LL	16d-\	.	.	.
N(16dn>\	16ryy	.	.	.
16dd->\	8ryy	.	.	.
16d->\JJ	.	.	.	.
*Xped	*	*	*	*
4B-/ 4e-	(16G-\LL	.	[&(<4g-/ 4b- (>4ee-N)	.
.	16D-\)	.	.	.
.	(16D-\	.	.	.
.	16DD-\JJ	.	.	.
*v	*v	*	*	*
!!LO:LB:g=original	!	!	!
=109	=109	=109	=109
*	*	*^	*
*xywh-6:413,3079,3790,889	*	*xywh-6:413,3079,3790,889	*xywh-6:413,3079,3790,889	*
*ped	*	*	*	*
16D-/LL)	.	2a-/) 2dd-)	4g-\]	.
(16DD-/	.	.	.	.
16D-/)	.	.	.	.
(16D-/JJ	.	.	.	.
*Xped	*	*	*	*
16d-\)	.	.	16f\LL&)	.
16ryy	.	.	16d-\	.
16ryy	.	.	16dd-\	.
16ryy	.	.	16dd-\JJ	.
(16G-\LL 16B- 16e-	.	([4gg-\ 4bb- 4eee-	4ryy	.
16D-\)	.	.	.	.
(16D-\	.	.	.	.
16DD-\JJ	.	.	.	.
=110	=110	=110	=110	=110
*^	*	*	*	*
*ped	*	*	*	*	*
16D-/LL)	2ryy	.	[2aa-/) [2ddd-	(4gg-\]	.
(16DDD-/	.	.	.	.	.
16DD-/)	.	.	.	.	.
(16DD-/JJ	.	.	.	.	.
16D-\LL)	.	.	.	4ff\)	.
16D-\	.	.	.	.	.
(16d-^\	.	.	.	.	.
[<16D-\JJ	.	.	.	.	.
*Xped	*	*	*	*	*
8A-^/L)	4D-\_	.	4aa-/] 4ddd-]	16ee-\LL	.
.	.	.	.	(>16d-\	.
8B-^/J	.	.	.	16dd-\)	.
.	.	.	.	[16dd-\JJ	.
*v	*v	*	*	*	*
=111	=111	=111	=111	=111
8D-\] 8c-	.	16ff/ 16aa- 16ddd-	16dd-\LL]	.
*	*	*v	*v	*
*	*	*^	*
*	*	*	*8va	*
.	.	16ryy	(16ddd-\	.
8AA-^\L 8A-	.	8ryy	16dddd-\	.
.	.	.	16ddd-\JJ)	.
*	*	*	*X8va	*
*	*	*v	*v	*
*	*	*^	*
8BB-^\ 8B-	.	4ryy	(16ddd-\LL	.
.	.	.	16dd-\)	.
8C-^\ 8c-	.	.	(16dd-\	.
.	.	.	16cn\JJ	.
8BB-^\ 8B-	.	8ryy	16d-/LL	.
.	.	.	16dn/	.
8AA-^\J 8A-	.	8c-X\ 8cc-X	16e-/	.
.	.	.	16f/JJ)	.
=112	=112	=112	=112	=112
*ped	*	*	*	*
(8qGGG-/	.	.	.	.
8GG-/L)	.	(4b-/	2B-\ 2g-	ff
(<16D-/L	.	.	.	.
16E-/JJ	.	.	.	.
8D-\)	.	4dd-/	.	.
4d-'\	.	.	.	.
.	.	4c-/) 4f 4a-	4ryy	.
*Xped	*	*	*	*
*clefG2	*	*	*	*
8ddd-~\	.	.	.	.
*clefF4	*	*	*	*
!!LO:LB:g=original	!	!	!	!
=113	=113	=113	=113	=113
.	.	.	.	.
*^	*	*	*	*
*xywh-6:407,3892,3751,1158	*xywh-6:407,3892,3751,1158	*	*xywh-6:407,3892,3751,1158	*xywh-6:407,3892,3751,1158	*
*ped	*	*	*	*	*
8GG-/L)	[4GG-\	.	(4b-/	2B-\ 2g-	.
(16D-/L	.	.	.	.	.
16E-/JJ	.	.	.	.	.
8GG-/)] 8D-	8ryy	.	4dd-/	.	.
4d-\	4ryy	.	.	.	.
.	.	.	4c-/) 4f 4a-	4ryy	.
*Xped	*	*	*	*	*
*clefG2	*	*	*	*	*
8ddd-\	8ryy	.	.	.	.
*clefF4	*	*	*	*	*
=114	=114	=114	=114	=114	=114
*ped	*	*	*	*	*
8GG-/L	[4GG-\	.	(4b-/	2B-\ 2g-	<
(16D-/L	.	.	.	.	.
16E-/JJ	.	.	.	.	.
8GG-/]) 8D-	8ryy	.	4dd-/)	.	.
*Xped	*	*	*	*	*
(8FF/L 8F	8ryy	.	.	.	.
8EE-/ 8E-	8ryy	.	[4e-:\ [4b-: [4gg-:	4ryy	.
8DD-/J 8D-	8ryy	.	.	.	.
*v	*v	*	*	*	*
=115	=115	=115	=115	=115
4CCn/) 4Cn	.	4e-\] 4b-] 4gg-]	4ryy	[
4FF:/ 4Cn: 4An:	.	8ff/L	4cn\ 4an	.
.	.	8ee-/J	.	.
8BBB-/L 8BB-	.	([4d-/ 4f [4b- [4dd-	4ryy	.
8AAA-X/J 8AA-X	.	.	.	.
=116	=116	=116	=116	=116
*^	*	*	*	*
*	*^	*	*	*	*
8GGGn/L 8GGn	4ryy	4ryy	.	4d-/]) 4f-X 4b-] 4dd-]	4ryy	.
8F-X/J	.	.	.	.	.	.
!	!	!	!	!LO:TX:b:i:t=con gran forza	!	!
[2E-\	8AA-\L	8ryy	.	8e-'/L 8a- 8cc-	8c-\L	.
.	8BB-\J	8B-/yy	.	8d-'/J 8dd-	8B-</J	.
.	[4C-/ [>4A-	4ryy	.	(8ee-/L	[4e-\ 4a-	.
.	.	.	.	8cc-/J	.	.
*v	*v	*v	*	*	*	*
=117	=117	=117	=117	=117
8C-/L] 8E-] 8A-]	.	8f/L) 8a-	8e-\]	.
8AAA-~/ 8AA-	.	8c-~>/ 8e- 8f 8cc-	8ryy	.
8BBB-~/ 8BB-	.	8B-~>/ 8dn 8f 8b-	4ryy	.
8DDn~/J [8BB- 8Dn	.	8A-~>/ 8f 8a-	.	.
8EE-~/L 8BB-_ 8E-	.	8G-~/ 8g-	4e-\	.
8FF~/J 8BB-_ 8F	.	8A-~/J 8a-	.	.
!!LO:PB:g=original	!	!	!	!
=118	=118	=118	=118	=118
*xywh-7:276,439,3764,1095	*	*xywh-7:276,439,3764,1095	*xywh-7:276,439,3764,1095	*
8GG-~/L 8BB-] 8G-	.	4B-/ 4d- 4b-	4ryy	.
(8BB-/ 8B-	.	.	.	.
8AA-/ 8A-	.	(4e-/	2B-\ 2d-	sfz
8GG-/ 8G-	.	.	.	.
8FF/ 8F	.	8f/L	.	.
8EE-/J 8E-	.	8g-/J	.	.
=119	=119	=119	=119	=119
2DD-/) 2D-	.	2c-/ 2a-	4e-\	>
.	.	.	8f\L	.
.	.	.	8e-\	.
4DDD-/ 4DD-	.	4f/) 4an	8d-\	.
.	.	.	8c-\J	.
=120	=120	=120	=120	=120
*ped	*	*	*	*
!	!	!LO:TX:b:i:t=dolce	!	!
8qGGG-/	.	.	.	.
*^	*	*	*	*
8GG-/L	[4GG-\	.	(4bb-/	2b-\ 2gg-	] pp
(16D-/L	.	.	.	.	.
16E-/JJ	.	.	.	.	.
8GG-/]) 8D-	8ryy	.	4ddd-/	.	.
4d-~\	4ryy	.	.	.	.
*Xped	*	*	*	*	*
.	.	.	4aa-/)	4cc-\ 4ff	.
*clefG2	*	*	*	*	*
8dd-~\	8ryy	.	.	.	.
*clefF4	*	*	*	*	*
=121	=121	=121	=121	=121	=121
*ped	*	*	*	*	*
8qGGG-/	.	.	.	.	.
8GG-/L	[4GG-\	.	(4bb-/	2b-\ 2gg-	.
(16D-/L	.	.	.	.	.
16E-/JJ	.	.	.	.	.
8GG-/]) 8D-	8ryy	.	4ddd-/	.	.
4d-\	4ryy	.	.	.	.
*Xped	*	*	*	*	*
.	.	.	4aa-/)	4cc-\ 4ff	.
*clefG2	*	*	*	*	*
8dd-\	8ryy	.	.	.	.
*clefF4	*	*	*	*	*
=122	=122	=122	=122	=122	=122
*ped	*	*	*	*	*
2ryy	8GG-\L	.	4bb-/	2b-\ 2gg-	<
*clefG2	*	*	*	*	*
.	(<8d-\	.	.	.	.
*Xped	*	*	*	*	*
.	8g-\	.	4ddd-/	.	.
.	8f\	.	.	.	.
(4b-/	8e-\	.	[4ee-:\ [4bb-: [4eee-:	4ryy	.
.	8d-\J	.	.	.	[
!!LO:LB:g=original	!	!	!	!	!
=123	=123	=123	=123	=123	=123
*xywh-7:270,1426,3592,993	*xywh-7:270,1426,3592,993	*	*xywh-7:270,1426,3592,993	*xywh-7:270,1426,3592,993	*
4cn/) 4ccn	2ryy	.	4ee-\] 4bb-] 4eee-]	4ryy	.
4f/) 4cc	.	.	(8fff/L	4ff\ 4aan	>
.	.	.	8eee-/J	.	.
4dd-/	(8B-\L	.	[4ff\ [4bb- [4ddd-	4ryy	.
.	8A-\J	.	.	.	.
*v	*v	*	*	*	*
=124	=124	=124	=124	=124
*ped	*	*	*	*
8Gn:/) 8b-:	.	8bb-/L] 8ddd-]	4ff\_	.
*Xped	*	*	*	*
8r	.	8cccn/J 8eee-	.	.
*clefF4	*	*	*	*
(8GGn/L	.	8ff\]) 8ddd- 8fff	8ryy	.
8AA-/	.	8r	8ryy	]
8BB-/	.	8b-/L 8dd-	[4f\	<
8Cn/J	.	8a-/J 8ccn	.	.
=125	=125	=125	=125	=125
*^	*	*	*	*
2ryy	8D-\L)	.	8b-/L	4f\] 4gn	.
.	(<8BB-\	.	(8dd-/	.	.
.	8Cn\	.	8ccn/	8en\L 8g	.
.	8En\	.	8b-/	8g\	.
8cn/L	8F\	.	8a-/	8f\	.
8A-/J)	8A-\J	.	8cc-X/J	8e\J	[
=126	=126	=126	=126	=126	=126
[4B-/	4B-\	.	8b-/L	[4dn\	.
.	.	.	8a-/J)	.	>
8B-/L]	2E-\	.	(2g-/	8d\L]	.
8d-/	.	.	.	8f\	.
8cn/	.	.	.	8e-\	.
8B-/J	.	.	.	8d-X\J	]
=127	=127	=127	=127	=127	=127
*ped	*	*	*	*	*
8An/	8.F\L	.	8.f/L)	8cn\	.
8r	.	.	.	8r	.
.	16F\Jk	.	16f/Jk	.	.
*Xped	*	*	*	*	*
8r	[2F\	.	(2f/	8r	pp
(16A/LL	.	.	.	(16c\LL	.
16B-/JJ	.	.	.	16d-\JJ	.
8cn/L)	.	.	.	8e-\L)	.
(16B-/L	.	.	.	(<16d-\L	.
16A/JJ	.	.	.	16c\JJ	.
!!LO:LB:g=original	!	!	!	!	!
=128	=128	=128	=128	=128	=128
*xywh-7:238,2305,3783,866	*xywh-7:238,2305,3783,866	*	*xywh-7:238,2305,3783,866	*xywh-7:238,2305,3783,866	*
8B-/L)	8F\]	.	8f/)	8d-\L)	.
(16E-/L	8ryy	.	4f^/	(16cn\L	.
16G-/JJ	.	.	.	16e-\JJ	.
8F/L)	8ryy	.	.	8d-\L)	.
(24D-/L	4FF^\	.	4f^/	(24B-\L	.
24E-/	.	.	.	24c\	.
24F/JJ	.	.	.	24d-\JJ	.
8E-/L)	.	.	.	8c\L)	.
(24BB-/L	[8FF^\	.	[8f^/	(24Gn\L	.
24Cn/	.	.	.	24An\	.
24D-/JJ	.	.	.	24B-\JJ	.
=129	=129	=129	=129	=129	=129
*ped	*	*	*	*	*
8.FF/L]) 8.Cn	4.ryy	.	8.An/L) 8.f]	8.ryy	<
16FF/Jk 16F	.	.	16f/Jk 16ff	16ryy	.
*Xped	*	*	*	*	*
8FF/ 8F	.	.	[<2f/ [2ff	8r	.
(16An/LL	[4.F\	.	.	(>16ccn\LL	.
16B-/JJ	.	.	.	16dd-\JJ	.
8cn/L)	.	.	.	8ee-\L)	.
(16B-/L	.	.	.	N[16dd-\L	.
16A/JJ	.	.	.	16cc\JJ	.
*	*	*	*v	*v	*
=130	=130	=130	=130	=130
8F\]) 8B-	8ryy	.	8f/L] 8dd-N] 8ff]	.
(16F/LL	4F\	.	(16e-/L 16ccn	.
16An/J	.	.	16g-/JJ 16ee-	.
8B-/J)	.	.	8f/L) 8dd-	.
(24d-/LL	4F\	.	(24b-/L	.
24e-/	.	.	24cc/	.
24f/J	.	.	24dd-/JJ	.
8e-/J)	.	.	8cc/L)	.
24B-/LL	[8F\	.	(<24en/L 24gn	.
24cn/	.	.	24f/ 24an	.
24d-/JJ	.	.	24g/JJ 24b-	.
*v	*v	*	*	*
!!LO:LB:g=original	!	!	!
=131||	=131||	=131||	=131||
*k[b-e-]	*	*k[b-e-]	*
*	*	*^	*
*xywh-7:168,3057,3860,898	*	*xywh-7:168,3057,3860,898	*xywh-7:168,3057,3860,898	*
8F\] 8c	.	8.f\L) 8.a	8.ryy	.
8r	.	.	.	.
*ped	*	*	*	*
*tremolo	*	*clefF4	*	*
.	.	16AA\Jk 16A	16ryy	p
32FFF/LLL	.	[4A/	8AA\L	.
32FF/	.	.	.	.
32FFF/	.	.	.	.
32FF/	.	.	.	.
32FFF/	.	.	24F\L	.
32FF/	.	.	.	.
.	.	.	24En\	.
32FFF/	.	.	.	.
.	.	.	24D\JJ	.
32FF/	.	.	.	.
32FFF/	.	8A/]	8C#X\	.
32FF/	.	.	.	.
32FFF/	.	.	.	.
32FF/	.	.	.	.
*	*	*clefG2	*	*
32FFF/	.	8c#X/ 8a	(24g\LL	.
32FF/	.	.	.	.
.	.	.	24f\	.
32FFF/	.	.	.	.
.	.	.	24en\JJ	.
32FF/JJJ	.	.	.	.
*Xped	*	*	*	*
=132	=132	=132	=132	=132
*ped	*	*	*	*
32FFF/LLL	.	8.B-/L) 8.d 8.a-X 8.b-	8.ryy	.
32FF/	.	.	.	.
32FFF/	.	.	.	.
32FF/	.	.	.	.
32FFF/	.	.	.	.
32FF/	.	.	.	.
*	*	*clefF4	*	*
32FFF/	.	16BB-/Jk 16B-	16ryy	.
32FF/	.	.	.	.
32FFF/	.	[4B-/	8BB-\L	.
32FF/	.	.	.	.
32FFF/	.	.	.	.
32FF/	.	.	.	.
32FFF/	.	.	(24G\L	.
32FF/	.	.	.	.
.	.	.	24F\	.
32FFF/	.	.	.	.
.	.	.	24E-X\JJ	.
32FF/	.	.	.	.
32FFF/	.	8D/) 8B-]	8ryy	.
32FF/	.	.	.	.
32FFF/	.	.	.	.
32FF/	.	.	.	.
*	*	*clefG2	*	*
32FFF/	.	8d/ 8b-	24a-X\LL	.
32FF/	.	.	.	.
.	.	.	24g\	.
32FFF/	.	.	.	.
.	.	.	24f\JJ	.
32FF/JJJ	.	.	.	.
*Xped	*	*	*	*
=133	=133	=133	=133	=133
*ped	*	*	*	*
32FFF/LLL	.	8.c/L 8.en 8.b- 8.cc	8.ryy	.
32FF/	.	.	.	.
32FFF/	.	.	.	.
32FF/	.	.	.	.
32FFF/	.	.	.	.
32FF/	.	.	.	.
*	*	*clefF4	*	*
32FFF/	.	16C/Jk 16c	16ryy	.
32FF/	.	.	.	.
32FFF/	.	8C/L 8c	8ryy	.
32FF/	.	.	.	.
32FFF/	.	.	.	.
32FF/	.	.	.	.
32FFF/	.	8En/ [8c	(24B-\LL	.
32FF/	.	.	.	.
.	.	.	24An\	.
32FFF/	.	.	.	.
.	.	.	24G\JJ	.
*Xped	*	*	*	*
32FF/JJJ	.	.	.	.
*ped	*	*	*	*
8FFF/L 8FF	.	8F/J) 8A 8c]	8ryy	.
*	*	*clefG2	*	*
8EE-/J 8E-	.	8cc#X/	24b-\LL	.
.	.	.	24a\	.
.	.	.	24g\JJ	.
*Xped	*	*	*	*
=134	=134	=134	=134	=134
4DD\ 4D	.	4dd/	8f#X\L	.
.	.	.	(24F#X</L	.
.	.	.	24G</	.
.	.	.	24A</JJ	.
4DD-X/ 4D-X	.	(4en/	8B-\L)	.
.	.	.	(24B-\L	.
.	.	.	24A\	.
.	.	.	24G\JJ	.
4CC/ 4C	.	4fn/)	8A\L)	.
.	.	.	(24A\L	.
.	.	.	24B-\	.
.	.	.	24c\JJ	.
!!LO:LB:g=original	!	!	!	!
=135	=135	=135	=135	=135
*xywh-7:442,3809,3560,1203	*	*xywh-7:442,3809,3560,1203	*xywh-7:442,3809,3560,1203	*
4BBBn/ 4BBn	.	(4f#X^/	8d\L)	.
.	.	.	(24c#X\L	.
.	.	.	24d\	.
.	.	.	24en\JJ	.
4BB\ 4Bn	.	4g^/	8d\L)	.
.	.	.	(24c#\L	.
.	.	.	24d\	.
.	.	.	24e\JJ	.
4BB-X\ 4B-X	.	4g#X^/)	8d\L)	.
.	.	.	(24fn\L	.
.	.	.	24e\	.
.	.	.	24d\JJ	.
=136	=136	=136	=136	=136
*^	*	*	*	*
8AA/L	4AA\	.	(4a^/	8c#X\L)	.
24G/L	.	.	.	(24c#\L	.
24F/	.	.	.	24d\	.
24En/JJ	.	.	.	24en\JJ	.
8GG#X/L	4GG#\	.	4bn^/	8d\L)	<
(<24D/L	.	.	.	(24f\L	.
24E/	.	.	.	24e\	.
24F/JJ	.	.	.	24d\JJ	.
8GGn/L)	4GG\	.	4cc#X^/)	8e\L)	.
(<24G/L	.	.	.	(24e\L	.
24F#X/	.	.	.	24f#X\	.
24E/JJ	.	.	.	24g\JJ	[
=137	=137	=137	=137	=137	=137
8F#X/L	4FF#X\)	.	(4d/ 4dd	8a\L)	.
24c/L	.	.	.	(24a\L	.
24B-/	.	.	.	24b-\	.
24A/JJ	.	.	.	24cc\JJ	.
8G^/L	4G\	.	4e-X/ 4ee-X	8b-\L)	.
24A/L	.	.	.	(24cc\L	.
24B-/	.	.	.	24b-\	.
24c/JJ	.	.	.	24a\JJ	.
8C^/L	4C\	.	4en/ 4een	8b-\L)	.
24G/L	.	.	.	(24b-\L	.
24A/	.	.	.	24a\	.
24B-/JJ	.	.	.	24g\JJ	.
*v	*v	*	*	*	*
*	*	*v	*v	*
=138	=138	=138	=138
*Xtremolo	*	*	*
8FF:/ 8C: 8A:	.	8f\)) 8a 8ff	.
*ped	*	*	*
4FFF/ 4FF	.	4ff^\ 4fff	ff
16FF/LL 16F	.	16f\LL 16ff	.
16FF/JJ 16F	.	16f\JJ 16ff	.
16FF/LL 16F	.	16f\LL 16ff	.
16FF/ 16F	.	16f\ 16ff	.
16FF/ 16F	.	16f\ 16ff	.
16FF/JJ 16F	.	16f\JJ 16ff	.
!!LO:PB:g=original	!	!	!
=139	=139	=139	=139
*xywh-8:400,441,3764,1081	*	*xywh-8:400,441,3764,1081	*
*Xped	*	*	*
8FF/ 8F	.	8f\ 8ff	.
*ped	*	*	*
4FFF/ 4FF	.	4ff^\ 4fff	.
*Xped	*	*	*
16E-\LL 16e-	.	16ee-\LL 16eee-	.
16D\JJ 16d	.	16dd\JJ 16ddd	.
16C\LL 16c	.	16cc\LL 16ccc	>
16BB-\ 16B-	.	16b-\ 16bb-	.
16AA\ 16A	.	16a\ 16aa	.
16GG\JJ 16G	.	16g\JJ 16gg	.
=140	=140	=140	=140
8FF/L 8F	.	8f\L 8ff	.
16AA/L 16A	.	16a\L 16aa	.
16GG/JJ 16G	.	16g\JJ 16gg	.
8FF/L 8F	.	8f/L 8ff	.
16EE-/L 16E-	.	16e-/L 16ee-	.
16DD/JJ 16D	.	16d/JJ 16dd	.
8FF/L 8F	.	8f/L 8ff	.
16EE-/L 16E-	.	16e-/L 16ee-	.
16CC/JJ 16C	.	16c/JJ 16cc	]]
=141	=141	=141	=141
*ped	*	*	*
4BBB-/ 4BB-	.	8B-/L 8b-	.
.	.	(16d/L 16b-	p
.	.	16f/JJ 16cc	.
8r	.	[4b-\ [4dd	.
*Xped	*	*	*
8D'\L 8B-	.	.	.
8F'\ 8d	.	16b-/LL] 16dd]	.
.	.	16f/ 16cc	.
8D'\J 8B-	.	16d/ 16b-	.
.	.	16f/JJ 16cc	.
=142	=142	=142	=142
*ped	*	*	*
8BBB-\L 8BB-	.	8.b-\L) 8.dd	.
8F\ 8d	.	.	.
.	.	(16cc\Jk 16ee-	.
*Xped	*	*	*
8B-\ 8f	.	[2dd\) [2ff	.
8F\J 8d	.	.	.
!LO:TX:t=P:problem=mixed beam	!	!	!
8B-\L 8f	.	.	.
16BBB-/L 16BB-	.	.	.
16AAA/JJ 16AA	.	.	.
!!LO:LB:g=original	!	!	!
=143	=143	=143	=143
*xywh-8:400,1382,3726,781	*	*xywh-8:400,1382,3726,781	*
*ped	*	*	*
8GGG/L 8GG	.	16dd\LL] 16ff]	.
.	.	(16cc\ 16ee-	.
*Xped	*	*	*
8G\J 8d	.	16b-\ 16dd	.
.	.	16a\JJ 16cc#X	.
8B-\L 8g	.	8b-\) 8dd	.
16GGG/L 16GG	.	4d^/ 4b- 4dd	.
16FFF#X/JJ 16FF#X	.	.	.
8GGG/L 8GG	.	.	.
*ped	*	*	*
8GGG#X/J 8GG#X	.	[8b-\ [8dd [8bb-	f
=144	=144	=144	=144
*	*	*^	*
*Xped	*	*	*	*
8AAA/ 8AA	.	8dd/L] 8bb-]	8b-\L]	>
(8A\L 8c#X 8en	.	(16cc#X/L 16aa	[8a\J	.
.	.	16een/JJ 16gg	.	.
8d\J) 8f	.	4.a\]) 4.dd 4.ff	4.ryy	.
8DD'/L 8D	.	.	.	.
8FF'/ 8F	.	.	.	.
8BBBn'/J 8BBn	.	(16ee-X/LL	8f\ 8a-X	.
.	.	16dd/JJ	.	.
*	*	*v	*v	*
=145	=145	=145	=145
*ped	*	*	*
8CC/ 8C	.	(16e-/LL) 16g 16ee-	]
.	.	16dd/JJ 16ff	.
*Xped	*	*	*
(16c\LL 16e-	.	4ee-\) 4gg	p
16d\JJ 16f	.	.	.
8e-\) 8g	.	.	.
8CC'/L 8C	.	(16a/LL 16cc	.
.	.	16g/JJ 16b-	.
8EE-'/ 8E-	.	4f#X/) 4a	.
8DD'/J 8D	.	.	.
=146	=146	=146	=146
*ped	*	*	*
8GGG/L 8GG	.	(<16g/LL 16b-	.
.	.	16a/JJ 16cc	.
(<16G/L 16B-	.	4b-\) 4dd	.
16A/JJ 16c	.	.	.
*Xped	*	*	*
8B-\L) 8d	.	.	.
8GGG'/ 8GG	.	(16en/LL 16g	.
.	.	16d/JJ 16f	.
8BBB-'/ 8BB-	.	4c#X/) 4en	.
8AAA'/J 8AA	.	.	.
!!LO:LB:g=original	!	!	!
=147	=147	=147	=147
*xywh-8:407,1991,3694,787	*	*xywh-8:407,1991,3694,787	*
*ped	*	*	*
!	!	!	!LO:HP:b
8DD/ 8D	.	(16d/LL 16f	<
.	.	16en/JJ 16g	[[
*Xped	*	*	*
!	!	!	!LO:HP:b:t=poco cresc.
16D\LL 16d	.	4f/) 4a	<
16C#X\JJ 16c#X	.	.	.
8D\L 8d	.	.	.
(8D^\ 8d-X	.	(16e/LL 16g	.
.	.	16f/JJ 16a	.
8Cn\) 8cn	.	8g/L) 8b-	.
8CC'\J 8C	.	(16f/L 16a	.
.	.	16e/JJ) 16g	.
=148	=148	=148	=148
*ped	*	*	*
8DD/ 8D	.	(16f/LL 16a	<
.	.	16g/JJ 16b-	.
16F\LL 16f	.	4a/) 4cc	[
16En\JJ 16en	.	.	.
*Xped	*	*	*
8F\ 8f	.	.	.
(8GG-^X/L 8G-X	.	(16a\LL 16cc	.
.	.	16b-\JJ 16dd	.
8FF/J) 8F	.	8cc\L) 8ee-	.
8FFF/ 8FF	.	(16b-\L 16dd	.
.	.	16a\JJ 16cc	.
=149	=149	=149	=149
*ped	*	*	*
8BBB-/ 8BB-	.	8b-/L) 8dd	mf
(16D\LL 16B-	.	(<16d/L 16b-	<
16F\JJ 16c	.	16f/JJ 16cc	.
8B-\L) 8d	.	([4b-\) [4dd	[
*Xped	*	*	*
8FF'\ 8F	.	.	.
8BB-'\ 8B-	.	16b-/LL] 16dd]	.
.	.	16f/ 16cc	.
8FF'\J 8F	.	16d/ 16b-	.
.	.	16f/JJ 16cc	.
=150	=150	=150	=150
*ped	*	*	*
8BBB-/L 8BB-	.	8.b-\L) 8.dd	.
(<16B-/L 16d	.	.	.
16c/JJ 16e-	.	(16cc\Jk 16ee-	.
8d\L) 8f	.	([2dd\) [2ff	<[
8FF\J 8F	.	.	.
*Xped	*	*	*
8BB-/L 8B-	.	.	.
16BBB-/L 16BB-	.	.	.
16AAA/JJ 16AA	.	.	.
!!LO:LB:g=original	!	!	!
=151	=151	=151	=151
*^	*	*	*
*xywh-8:407,2618,3649,870	*xywh-8:407,2618,3649,870	*	*xywh-8:407,2618,3649,870	*
*ped	*	*	*	*
8GGG/ 8GG	8ryy	.	16dd\LL] 16ff]	.
.	.	.	16cc\ 16ee-	.
*Xped	*	*	*	*
(16f/LL	4G\ 4B-	.	16b-\ 16dd	.
16e-/JJ	.	.	16a\JJ 16cc#X	.
8d/)	.	.	8b-\) 8dd	.
16GGG/LL 16GG	16ryy	.	4d/ 4b- 4dd	f
16FFF#X/JJ 16FF#X	16ryy	.	.	.
8GGG/L 8GG	8ryy	.	.	.
*	*	*	*ped	*
8EEEn/J 8EEn	8ryy	.	[8b-\ [8dd [8gg [8bb-	.
*v	*v	*	*	*
=152	=152	=152	=152
*	*	*^	*
*	*	*Xped	*	*
8AAA/ 8AA	.	8b-\] 8dd] 8gg] 8bb-]	8ryy	.
(8A\L 8c#X 8en	.	(16cc#X/LL 16aa	[8a\L	.
.	.	16een/J 16gg	.	.
8d\J) 8f	.	8dd/J) 8ff	8a\J]	.
16DD/LL 16D	.	4A/ 4f 4a	4ryy	sfz
16CC#X/JJ 16C#X	.	.	.	.
8DD/L 8D	.	.	.	.
16DD-X/L 16D-X	.	(8f^/ 8a	16Bn\LL	.
16CCn/JJ 16Cn	.	.	16c\JJ	.
=153	=153	=153	=153	=153
*^	*	*	*	*
*ped	*	*	*	*	*
8CC-X/ 8C-X	8ryy	.	8f/) 8a-X	8d-X\	.
*clefG2	*	*	*	*	*
16d-X'/LL 16f	4c\	.	[8ff^/	16a-'\LL	sfz
16en'/J	.	.	.	16g'\JJ	.
8f'/J	.	.	16ff/LL]	8a-\	<
.	.	.	16ee-/	.	.
*Xped	*	*	*	*	*
(16f/LL	4c\	.	16dd-X/	4a-\	.
16e-X/J	.	.	16ee-/JJ	.	.
8d-X/J)	.	.	8ff/L	.	.
*clefF4	*	*	*	*	*
8C-X\ 8D-X 8c-X	8ryy	.	16g-X/L 16ee- 16gg-X	16ryy	.
.	.	.	16a-X/JJ 16ff 16aa-X	16ryy	[
!!LO:LB:g=original	!	!	!	!	!
=154	=154	=154	=154	=154	=154
*xywh-8:394,3335,3642,819	*xywh-8:394,3335,3642,819	*	*xywh-8:394,3335,3642,819	*xywh-8:394,3335,3642,819	*
*ped	*	*	*	*	*
8FF-X/ 8D-X 8F-X	8ryy	.	8b-\ 8gg-X 8bb-	8ryy	.
*clefG2	*	*	*	*	*
16g-X'/LL 16b-	4f-X\	.	[8bb-^/L	16dd-X'\LL	<
16an'/J	.	.	.	16ccn'\J	.
8b-'/J	.	.	16bb-/L]	8dd-\J	.
.	.	.	16aa-X/	.	.
*Xped	*	*	*	*	*
*clefF4	*	*	*	*	*
(16B-/LL	4F-X\ 4d-X	.	16g-X/ 16gg-X	4dd-\	.
16A-X/J	.	.	16fn/JJ 16ffn	.	.
8G-X/J)	.	.	16g-\LL 16gg-	.	.
.	.	.	16a\ 16aa-	.	.
8EEEn/ 8EEn	8ryy	.	16b-\ 16bb-	8gg-/	.
.	.	.	16cc\JJ 16ccc	.	.
*v	*v	*	*	*	*
=155	=155	=155	=155	=155
*ped	*	*	*	*
8FFF/L 8FF	.	[4dd\ [4ff [4bb- [4ddd	4ryy	f
(16D/L 16B-	.	.	.	.
16F/JJ 16c	.	.	.	.
8B-\) 8d	.	16dd\LL] 16ff] 16bb-] 16ddd]	16ryy	.
.	.	16cc\ 16ccc	16ryy	<
*Xped	*	*	*	*
4F\ 4B- 4d	.	16b-\ 16bb-	4bb-/	.
.	.	16cc\JJ 16ccc	.	.
.	.	8dd\L 8ddd	.	.
8B-\ 8d 8a-X	.	(16dd\L 16ddd	[8bb-/	.
.	.	16ff\JJ 16fff	.	.
=156	=156	=156	=156	=156
*ped	*	*	*	*
8F:\ 8B-: 8e-: 8g:	.	8ee-\L) 8bb-] 8eee-	8ryy	[
8r	.	16g\L 16gg	16ryy	p
.	.	16a\JJ 16aa	16ryy	.
*Xped	*	*	*	*
8r	.	(4ccc/	8cc\L	.
(8FFF/L 8FF	.	.	8ee-\ 8aa	.
8BBB-/J) 8BB-	.	8bb-/)	8b-\J 8dd 8ff	.
8r	.	8r	8ryy	.
!!LO:LB:g=original	!	!	!	!
=157	=157	=157	=157	=157
*^	*	*	*	*
*xywh-8:407,3995,3751,1049	*xywh-8:407,3995,3751,1049	*	*xywh-8:407,3995,3751,1049	*xywh-8:407,3995,3751,1049	*
*ped	*	*	*	*	*
8DD/ 8AA 8F#X	8ryy	.	8a\ 8dd 8ff#X 8aa	8ryy	f
4DD^/ 4D	4ryy	.	4d^/	4ryy	.
*Xped	*	*	*	*	*
4D/	24FF#X\LL	.	4d/	(24A\LL	<
.	24GG\	.	.	24B-\	.
.	24AA\JJ	.	.	24c\JJ	.
.	8GG\L	.	.	8B-\L)	.
[8D/	8C\J	.	[8d/	8A\J	.
=158	=158	=158	=158	=158	=158
4.D/]	(8.BB-\L	.	4.d/]	(8.G\L	[
.	16AA\Jk	.	.	16A\Jk	.
.	8GG\L)	.	.	8B-\L)	.
[4.D/	(24BB-\L	.	[4.d/	(24G\L	>
.	24AA\	.	.	24A\	.
.	24GG\JJ	.	.	24B-\JJ	.
.	8FF\L)	.	.	8A\L)	.
.	8EE-'\J	.	.	8G\J	.
*v	*v	*	*	*	*
=159	=159	=159	=159	=159
*ped	*	*	*	*
8DD/ 8D]	.	8.F#X/L 8.d]	[4d\	] p
4D\	.	.	.	.
.	.	((16G/Jk 16en	.	.
*Xped	*	*	*	*
.	.	8A/)) 8d] 8f#X	8ryy	.
4D\	.	8r	8ryy	.
.	.	((4e-X^/ 4g	[4d\	.
[8D\	.	.	.	.
=160	=160	=160	=160	=160
8D\]	.	8.f#X/L)) 8.a	4d\]	<
4D\	.	.	.	.
.	.	((16g/Jk 16b-	.	.
.	.	2a/)) 2cc	4ryy	[
!	!LO:HP:a	!	!	!
(24D\LL	<	.	.	.
24E-\	.	.	.	.
24F\JJ	.	.	.	.
8E-\L)	.	.	4ryy	.
8D'\J	[	.	.	.
*	*	*v	*v	*
!!LO:PB:g=original	!	!	!
=161	=161	=161	=161
*^	*	*	*
*xywh-9:270,401,3624,872	*xywh-9:270,401,3624,872	*	*xywh-9:270,401,3624,872	*
!LO:TX:t=P:problem= 8GG zapisana z chorągiewką	!	!	!	!
!LO:N:vis=2	!	!	!LO:TX:b:i:t=dolce	!
8GG/	[2.GG\	.	(8.g/L 8.b-	.
4D/	.	.	.	.
.	.	.	16a/Jk 16cc	.
.	.	.	8.b-\L 8.dd	.
4D/	.	.	.	.
.	.	.	16a\Jk 16cc#X	.
.	.	.	8b-\L) 8dd	.
[8D/	.	.	(16a\L 16ff	.
.	.	.	16g\JJ 16ee-	.
=162	=162	=162	=162	=162
8D/]	4GG\_	.	8.f#X/L) 8.dd	.
4D/	.	.	.	.
.	.	.	(16e-/Jk 16g	.
.	8GG\]	.	8d/L) 8f#	.
!	!	!LO:HP:a	!	!
(24D/LL	8r	<	8f#'/ 8a	.
24E-/	.	.	.	.
24F/JJ	.	[[	.	.
8E-/L)	4r	.	8g'/ 8b-	.
8D'/J	.	.	8a'/J 8cc	.
=163	=163	=163	=163	=163
!LO:TX:t=P:problem= 8GG zapisana z chorągiewką	!	!	!	!
!LO:N:vis=2	!	!	!	!
8GG/	[2.GG\	.	(16g\LL 16b-	<
.	.	.	16a\ 16cc	.
4D/	.	.	16b-\ 16dd	.
.	.	.	16a\JJ 16cc#X	.
.	.	.	8b-\L) 8dd	.
4D/	.	.	(16a\L 16ff	.
.	.	.	16ccn\JJ 16ee-	.
.	.	.	8b-\L) 8dd	.
[8D/	.	.	(16b-\L 16gg	.
.	.	.	16cc\JJ 16aa	[[
*v	*v	*	*	*
=164	=164	=164	=164
8GG/] 8D]	.	8dd\) 8bb-	.
(24F#X\LL	.	(24f#X/LL	p
24G\	.	24g/	.
24A\JJ	.	24a/JJ	.
8G\L)	.	8g/)	.
(24G\L	.	(24g\LL 24gg	f
24A\	.	24a\ 24aa	.
24B-\JJ	.	24b-\JJ 24bb-	.
8G\L)	.	8g\L) 8gg	.
8Fn'\J	.	8fn'\J 8ffn	.
!!LO:LB:g=original	!	!	!
=165	=165	=165	=165
*^	*	*^	*
*xywh-9:212,1191,3796,758	*xywh-9:212,1191,3796,758	*	*xywh-9:212,1191,3796,758	*xywh-9:212,1191,3796,758	*
*ped	*	*	*	*	*
8E-\	8ryy	.	8e-/ 8ee-	8ryy	.
4EE-^</ 4E-	4ryy	.	4e-^/	4ryy	ff
*Xped	*	*	*	*	*
4E-/	(24GG\LL	.	4e-/	24B-\LL	.
.	24AA-X\	.	.	24c\	.
.	24BB-\JJ	.	.	24d-X\JJ	.
.	8AA-\L)	.	.	8c\L	.
[8E-/	8D-X\J	.	[8e-/	8B-\J	.
=166	=166	=166	=166	=166	=166
4.E-/]	(<8.C\L	.	4.e-/]	(8.A-X\L	.
.	16BB-\Jk	.	.	16B-\Jk	.
.	8AA-X/L)	.	.	8c\L)	.
8ryy	(>24D-X/L	.	(8e-/	24G\L	>
.	24C/	.	.	24A-\	.
.	24BB-/JJ	.	.	24B-\JJ	.
8AA-/L)	4ryy	.	4en/)	8c\L	.
8GG-X'/J	.	.	.	8B-\J	]
*v	*v	*	*	*	*
=167	=167	=167	=167	=167
*ped	*	*	*	*
8FF/	.	8.An/L 8.f	[4f\	p
4F\	.	.	.	.
*Xped	*	*	*	*
.	.	(16B-/Jk 16g	.	.
.	.	8c/) 8f] 8a	4ryy	.
4F\	.	8r	.	.
.	.	4g-X/ 4b-	[4f\	.
[8F\	.	.	.	.
=168	=168	=168	=168	=168
8F\]	.	8.a/L 8.cc	4f\_	<
4F\	.	.	.	.
.	.	(16b-/Jk 16dd-X	.	.
.	.	2cc/) 2ee-	8f\]	.
!	!LO:HP:a	!	!	!
(24F\LL	<	.	8r	[
24G-X\	.	.	.	.
24A-X\JJ	.	.	.	.
8G-\L)	.	.	4r	.
8F'\J	[	.	.	.
!!LO:LB:g=original	!	!	!	!
=169	=169	=169	=169	=169
*^	*	*	*	*
*xywh-9:212,1847,3592,770	*xywh-9:212,1847,3592,770	*	*xywh-9:212,1847,3592,770	*xywh-9:212,1847,3592,770	*
!LO:N:vis=2	!	!	!LO:TX:b:i:t=dolce	!	!
!LO:TX:t=P:problem= 8BB- zapisana z chorągiewką	!	!	!	!	!
8BB-/	[2BB-\	.	(8.b-\L 8.dd-X	2ryy	.
4F/	.	.	.	.	.
.	.	.	16cc\K 16ee-	.	.
.	.	.	8.dd-\ 8.ff	.	.
[8F/L	.	.	.	.	.
.	.	.	16cc\Jk 16een	.	.
8F/J]	8BB-\]	.	8ff/L)	8dd-\L	.
8EE-/ 8E-	8ryy	.	16aa-X^/L	8b-\J 8dd-	.
.	.	.	16gg-X/JJ	.	.
=170	=170	=170	=170	=170	=170
!	!	!	!LO:TX:b:i:t=marc.	!	!
8AA-X\ 8A-X	8ryy	.	(4cc/ 4ff	8.a-X\L	.
(16c/LL	4G-X\ 4A-	.	.	.	.
16B-/JJ	.	.	.	(16g\Jk	<
8c/L)	.	.	[4cc/) [4ee-X	8.a-\L)	.
(16c/L	4G-\ 4A-	.	.	.	.
16f/JJ	.	.	.	16g\Jk	.
8e-/L)	.	.	8cc/L] 8ee-]	8a-\	.
8c'/J 8e-	8G-\ 8A-	.	16f'/L 16ff	8cc\	[
.	.	.	16g-X'/JJ 16gg-X	.	.
=171	=171	=171	=171	=171	=171
8FF/ 8F	8ryy	.	[<2a-X\ [2aa-X	8dd/	<
(16d-X/LL	4F\ 4A-X	.	.	8ryy	.
16c/JJ	.	.	.	.	.
8d-/L)	.	.	.	4ryy	.
(16d-/L	4F\ 4A-	.	.	.	.
16e-/JJ	.	.	.	.	.
8f/L)	.	.	8a-\L] 8aa-]	8ryy	.
8d-:/J 8gn:	8F-X:\	.	16cc\L 16ccc	8ggn/	.
.	.	.	16b-\JJ 16bb-	.	.
=172	=172	=172	=172	=172	=172
8EE-/ 8E-	8ryy	.	[4a-X\ [<4gg-X [4aa-X	4ryy	.
(16g-X/LL	4A-X\ 4c	.	.	.	.
16f/JJ	.	.	.	.	.
8g-/L)	.	.	8.a-\L] 8.gg-] 8.aa-]	8.ryy	.
(16g-/L	4A-\ 4c	.	.	.	.
16f/J	.	.	16a-\Jk 16aa-	16ryy	.
8e-/J)	.	.	16b-\LL 16bb-	16ryy	.
.	.	.	16cc\ 16ccc	16ryy	.
8A-\ 8c 8g-	8ryy	.	16dd-X\ 16ddd-X	8aa-/	.
.	.	.	16ee-\JJ 16eee-	.	.
!!LO:LB:g=original	!	!	!	!	!
=173	=173	=173	=173	=173	=173
*xywh-9:174,2484,3822,847	*xywh-9:174,2484,3822,847	*	*xywh-9:174,2484,3822,847	*xywh-9:174,2484,3822,847	*
!	!	!	!LO:TX:t=P:problem=mixed beam	!	!
*ped	*	*	*	*	*
[4DD-X/ [4D-X	4ryy	.	8ff\L 8aa-X 8fff	4ryy	f
.	.	.	(16F/L 16d-X	.	.
.	.	.	16A-X/J 16e-	.	.
*Xped	*	*	*	*	*
8DD-/] 8D-]	8ryy	.	8d-/J) 8f	8ryy	.
*clefG2	*	*	*	*	*
(24dd-X/LL	[4.g-X\	.	(8fff/	(24bb-\LL	p
!	!	!	!LO:TX:b:i:t=dolce	!	!
24cc/	.	.	.	24ccc\	.
24b-/JJ	.	.	.	24ddd-X\JJ	.
8ee-/L 8gg-X	.	.	(4eee-/)	8ccc\L	.
8dd-/J 8ff	.	.	.	8bb-\J	.
*	*	*	*v	*v	*
=174	=174	=174	=174	=174
8cc/L) 8ee-	4g-X\]	.	4aa-X\)) 4aaa-X	.
(24cc/L	.	.	.	.
24dd-X/	.	.	.	.
24ee-/JJ	.	.	.	.
8dd-/L	2f\	.	(4aa-\ 4bb-	.
8cc/	.	.	.	.
8b-/	.	.	((4dd-X\) [4ddd-X	.
8a-X/J	.	.	.	.
=175	=175	=175	=175	=175
*	*	*	*^	*
!	!	!	!LO:TX:t=P:problem=mixed beam	!	!
*ped	*	*	*	*	*
8e-/) 8b- 8ee-	8ryy	.	8gg-X\L)) 8ddd-X] 8ggg-X	4ryy	.
*Xped	*	*	*	*	*
*clefF4	*	*	*	*	*
16B-'/LL	4E-\	.	16d-X'/L 16g-X	.	.
16An'/JJ	.	.	16c'/J 16f	.	.
8B-'/	.	.	8d-'/J 8g-	8ryy	.
*clefG2	*	*	*	*	*
(24b-/LL	[4.e-\	.	(8ddd/	(24gg-\LL	p
24a-X/	.	.	.	24aa-X\	.
24g-X/JJ	.	.	.	24bb-\JJ	.
8cc/L 8ee-	.	.	(4ccc/)	8aan\L	.
8b-/J 8dd-X	.	.	.	8gg-\J	.
*	*	*	*v	*v	*
=176	=176	=176	=176	=176
8a-X/L) 8cc	4e-\]	.	4ff\)) 4fff	.
(24a-/L	.	.	.	.
24b-/	.	.	.	.
24cc/JJ	.	.	.	.
8b-/L	2d-X\	.	(4ff\ 4gg-X	.
8a-/	.	.	.	.
8g-X/	.	.	((4b-\) 4bb-	.
8f/J	.	.	.	.
!!LO:LB:g=original	!	!	!	!
=177	=177	=177	=177	=177
*	*	*	*^	*
*xywh-9:155,3210,3783,853	*xywh-9:155,3210,3783,853	*	*xywh-9:155,3210,3783,853	*xywh-9:155,3210,3783,853	*
!	!	!	!LO:TX:t=P:problem=mixed beam	!	!
*ped	*	*	*	*	*
8c/) 8g-X 8cc	8ryy	.	8ee-\L)) 8bb- 8eee-	8ryy	.
*Xped	*	*	*	*	*
*clefF4	*	*	*	*	*
16G-X'/LL	4C\	.	16B-'/L 16e-	16ryy	f
16F'/J	.	.	16An'/J 16dn	16ryy	.
8G-'/J	.	.	8B-'/J 8e-	8ryy	.
*clefG2	*	*	*	*	*
(24g-X/LL	[4.c\	.	(8bb-/	(24ee-\LL	p
24f/	.	.	.	24ff\	.
24e-/JJ	.	.	.	24gg-X\JJ	.
8a/L 8cc	.	.	(4aa-X/)	8ff\L	.
8g-/J 8b-	.	.	.	8ee-\J	.
*	*	*	*v	*v	*
=178	=178	=178	=178	=178
8f/L) 8a-X	4c\]	.	4dd-X\)) 4ddd-X	.
(24f/L	.	.	.	.
24g-X/	.	.	.	.
24a-/JJ	.	.	.	.
8g-/L	(2B-\	.	(4dd-\	.
8f/	.	.	.	.
8e-/	.	.	4g-X\ 4gg-X	.
8d-X/J	.	.	.	.
=179	=179	=179	=179	=179
8An/)) 8c	8ryy	.	8f\) 8ff	.
*clefF4	*	*	*	*
*ped	*	*	*	*
4FF^/ 4F	4ryy	.	4ff^\ 4fff	f
*Xped	*	*	*	*
16B-/LL	[8En\L	.	16d-X/LL 16g-X	.
16A/JJ	.	.	16c/JJ 16f	.
8B-/L	8E\J]	.	8d-/L 8g-	.
(8B-/J	(8G-X\	.	(>8en/J 8cc	>
=180	=180	=180	=180	=180
8F\)) 8A	8ryy	.	8f/)	.
*ped	*	*	*	*
4FF^/ 4F	4ryy	.	4ff^\ 4fff	] f
*Xped	*	*	*	*
16d-X'/LL	[8En\L	.	16g-X'/LL 16b-X	p
16c'/J	.	.	16f'/JJ 16a	.
8d-'/J	8E\J]	.	8g-'\L 8b-	.
*clefG2	*	*	*	*
(8c/ 8g-X 8b-	8ryy	.	([8cc\J 8een 8ccc	>
*v	*v	*	*	*
!!LO:LB:g=original	!	!	!
=181	=181	=181	=181
*xywh-9:181,3923,3726,1114	*	*xywh-9:181,3923,3726,1114	*
8f/) 8an	.	8cc\]) 8ff	.
*clefF4	*	*	*
*ped	*	*	*
4FF^</ 4F	.	4ff^\ 4fff	] f
*Xped	*	*	*
16E-'\LL 16e-	.	16ee-'\LL 16eee-	.
16D'\JJ 16d	.	16dd'\JJ 16ddd	.
16C'\LL 16c	.	16cc'\LL 16ccc	.
16BB-'\ 16B-	.	16b-'\ 16bb-	.
16AA'\ 16A	.	16a'\ 16aa	.
16GG'\JJ 16G	.	16g'\JJ 16gg	.
=182	=182	=182	=182
8FF/ 8F	.	8f\ 8ff	<
*ped	*	*	*
16FFF/LL 16FF	.	4ff^\ 4fff	.
16GGG/JJ 16GG	.	.	.
16AAA/LL 16AA	.	.	.
16BBB-/ 16BB-	.	.	.
*Xped	*	*	*
16CC/ 16C	.	16ee-\LL 16eee-	.
16DD/JJ 16D	.	16dd\JJ 16ddd	.
16EE-/LL 16E-	.	16cc\LL 16ccc	.
16DD/ 16D	.	16b-\ 16bb-	.
16EE-/ 16E-	.	16a\ 16aa	.
16EEn/JJ 16En	.	16g\JJ 16gg	[[
=183	=183	=183	=183
8FF/L 8F	.	8f\L 8ff	>
16AA/L 16A	.	16a\L 16aa	.
16GG/JJ 16G	.	16g\JJ 16gg	.
8FF/L 8F	.	8f/L 8ff	.
16EE-/L 16E-	.	16e-/L 16ee-	.
16DD/JJ 16D	.	16d/JJ 16dd	.
8FF/L 8F	.	8f/L 8ff	.
16EE-/L 16E-	.	16e-/L 16ee-	.
16CC/JJ 16C	.	16c/JJ 16cc	]]
=184	=184	=184	=184
*ped	*	*	*
4BBB-/ 4BB-	.	8B-/L 8b-	.
.	.	(16d/L 16b-	p
.	.	16f/JJ) 16cc	.
8r	.	([4b-\ [4dd	.
*Xped	*	*	*
8D\L 8B-	.	.	.
8F\ 8d	.	16b-/LL] 16dd]	.
.	.	16f/ 16cc	.
8D\J 8B-	.	16d/ 16b-	.
.	.	16f/JJ 16cc	.
=185	=185	=185	=185
*ped	*	*	*
8BBB-\L 8BB-	.	8.b-\L) 8.dd	.
8F'\ 8d	.	.	.
.	.	(16cc\Jk 16ee-	.
8B-'\ 8f	.	[2dd\) [2ff	.
*Xped	*	*	*
8F'\J 8d	.	.	.
!LO:TX:t=P:problem=mixed beam	!	!	!
8B-'\L 8f	.	.	.
16BBB-/L 16BB-	.	.	.
16AAA/JJ 16AA	.	.	.
!!LO:PB:g=original	!	!	!
=186	=186	=186	=186
*xywh-10:311,441,3777,1171	*	*xywh-10:311,441,3777,1171	*
*ped	*	*	*
8GGG\L 8GG	.	16dd\LL] 16ff]	<
.	.	(16cc\ 16ee-	.
8G\ 8d	.	16b-\ 16dd	.
.	.	16a\JJ 16cc#X	.
*Xped	*	*	*
8B-\J 8g	.	8b-\) 8dd	.
16GGG/LL 16GG	.	4d^/ 4b- 4dd	[
16FFF#X/JJ 16FF#X	.	.	.
8GGG/L 8GG	.	.	.
*ped	*	*	*
8GGG#X/J 8GG#X	.	[8b-^\ [8dd [8bb-	f
=187	=187	=187	=187
*	*	*^	*
*Xped	*	*	*	*
8AAA/ 8AA	.	8bb-/L]	8b-\L] 8dd]	.
(8A\L 8c#X 8en	.	(16aa/L	[8a\J 8cc#X	>
.	.	16een/JJ 16gg	.	.
8d\J) 8f	.	4.dd/) 4.ff	4.a\]	.
8DD'/L 8D	.	.	.	.
8FF'/ 8F	.	.	.	.
8BBBn'/J 8BBn	.	(16ee-X/LL	8f\ 8a-X	.
.	.	16dd/JJ)	.	.
*	*	*v	*v	*
=188	=188	=188	=188
*ped	*	*	*
8CC'/L 8C	.	(16e-/LL 16g 16ee-	] p
.	.	16dd/JJ 16ff	.
(<16c/L 16e-	.	4ee-\) 4gg	.
16d/JJ 16f	.	.	.
*Xped	*	*	*
8e-\L) 8g	.	.	.
8CC'\ 8C	.	(16a/LL 16cc	.
.	.	16g/JJ 16b-	.
8EE-'\ 8E-	.	4f#X/) 4a	.
8DD'\J 8D	.	.	.
=189	=189	=189	=189
*ped	*	*	*
8GGG/L 8GG	.	(<16g/LL 16b-	.
.	.	16a/JJ 16cc	.
(16G/L 16B-	.	4b-\) 4dd	.
16A/JJ 16c	.	.	.
*Xped	*	*	*
8B-/L) 8d	.	.	.
8GGG'/ 8GG	.	(16en/LL 16g	.
.	.	16d/JJ 16f	.
8BBB-'/ 8BB-	.	4c#X/) 4e	.
8AAA'/J 8AA	.	.	.
!!LO:LB:g=original	!	!	!
=190	=190	=190	=190
*xywh-10:381,1472,3636,921	*	*xywh-10:381,1472,3636,921	*
*ped	*	*	*
8DD/ 8D	.	(16d/LL 16f	<
.	.	16en/JJ 16g	.
*Xped	*	*	*
16D\LL 16d	.	4f/) 4a	.
16C#X\JJ 16c#X	.	.	.
8D\L 8d	.	.	.
(8D-X^\J 8d-X	.	(16e/LL 16g	.
.	.	16f/JJ 16a	.
8Cn\L) 8cn	.	8g/L) 8b-	.
8CC'\J 8C	.	(16f/L 16a	.
.	.	16e/JJ 16g	.
=191	=191	=191	=191
*ped	*	*	*
8FFF/L 8FF	.	16f/LL) 16a	<
.	.	16g/JJ 16b-	.
16F\L 16f	.	4a/ 4cc	.
*Xped	*	*	*
16En\JJ 16en	.	.	.
8F\L 8f	.	.	.
(8GG-X^\J 8G-X	.	(16a\LL 16cc	.
.	.	16b-\JJ 16dd	.
8FF/L) 8F	.	8cc\L 8ee-	.
8FFF/J 8FF	.	16b-\L 16dd	.
.	.	16a\JJ 16cc	[[
=192	=192	=192	=192
*	*	*^	*
*ped	*	*	*	*
8BBB-/L 8BB-	.	8b-\L) 8dd	8ryy	.
(16D/L 16B-	.	16b-\L 16ff 16bb-	16ryy	ff
16F/JJ 16c	.	16cc\JJ 16ff 16ccc	16ryy	.
8B-\L) 8d	.	[4dd/ [4bb- [4ddd	8dd\L	.
*Xped	*	*	*	*
8FF\ 8F	.	.	(16B-\L 16d	.
.	.	.	16c\JJ 16f	.
8BB-\ 8B-	.	16dd/LL] 16bb-] 16ddd]	8d\) 8b-	.
.	.	16cc/ 16ff 16ccc	.	.
8FF\J 8F	.	16b-/ 16dd 16bb-	8r	.
.	.	16cc/JJ 16ff 16ccc	.	.
=193	=193	=193	=193	=193
*^	*	*	*	*
*ped	*	*	*	*	*
8BBB-/ 8BB-	8ryy	.	8.dd\L 8.bb- 8.ddd	4ryy	.
(16B-/LL 16d	[8F\L	.	.	.	.
16c/JJ 16e-	.	.	16ee-\Jk 16ccc (16eee-	.	.
!	!	!	!	!LO:N:vis=2	!
!	!	!	!LO:TX:t=P:problem= ligatura 2ff w t. 193 zapisana od góry, w t. 194 od dołu	!	!
8ryy	8F\J]) 8d 8f	.	[2ff/ [2ddd [2fff)	8ff\L	.
*Xped	*	*	*	*	*
8FF/L 8F	4.ryy	.	.	(16d\L 16b-	.
.	.	.	.	16f\JJ 16cc	.
8BB-/ 8B-	.	.	.	8b-\) 8dd	.
16BBB-/L 16BB-	.	.	.	8r	.
16AAA/JJ 16AA	.	.	.	.	.
*	*	*	*v	*v	*
!!LO:LB:g=original	!	!	!	!
=194	=194	=194	=194	=194
*xywh-10:355,2247,3674,992	*xywh-10:355,2247,3674,992	*	*xywh-10:355,2247,3674,992	*
*ped	*	*	*	*
8GGG/ 8GG	8ryy	.	16ff\LL] 16ddd] 16fff]	.
.	.	.	16ee-\ 16ccc 16eee-	.
*Xped	*	*	*	*
(16f/LL	4G\ 4B-	.	16dd\ 16bb- 16ddd	.
16e-/J	.	.	16cc#X\JJ 16aa 16ccc#X	.
8d/J)	.	.	8dd\ 8bb- 8ddd	.
16GGG/LL 16GG	8ryy	.	4dd^\ 4bb- 4ddd	.
16FFF#X/JJ 16FF#X	.	.	.	.
8GGG/L 8GG	4ryy	.	.	.
*ped	*	*	*8va	*
8EEEn/J 8EEn	.	.	[8bb-\ [8ddd [8ggg [8bbb-	sfz
*v	*v	*	*	*
=195	=195	=195	=195
*	*	*^	*
*Xped	*	*	*	*
8AAA/ 8AA	.	8bb-\L] 8ddd] 8ggg] 8bbb-]	4ryy	>
(8A\L 8c#X 8en	.	16aa\L 16ccc#X 16aaa	.	.
.	.	16gg\JJ 16eeen 16ggg	.	.
8d\J) 8f	.	8ff\ 8ddd 8fff	8ryy	.
*	*	*v	*v	*
*	*	*X8va	*
*	*	*^	*
16DD/LL 16D	.	4A^/ 4f 4a	4ryy	]
16CC#X/JJ 16C#X	.	.	.	.
8DD/L 8D	.	.	.	.
16DD-X/L 16D-X	.	([8f/ 8a	(16Bn\LL	.
16CCn/JJ 16Cn	.	.	16c\JJ	.
=196	=196	=196	=196	=196
*^	*	*	*	*
*ped	*	*	*	*	*
8CC-X/ 8C-X	8ryy	.	8d-X/)) 8f] 8a-X	8ryy	.
*clefG2	*	*	*	*	*
(16d-X'/LL 16f	4c-X\	.	([8dd-X^/L [8ff	16a-'\LL	sfz
16en'/J	.	.	.	16g'\J	.
8f'/J)	.	.	16dd-/L] 16ff]	8a-'\J	.
.	.	.	16ee-X/)	.	.
*Xped	*	*	*	*	*
16f/LL	4c-\	.	16dd-/	N[4a-\	.
16e-X/J	.	.	16ee-/JJ	.	.
8d-X/J	.	.	8a-\L_ 8ff	.	.
*clefF4	*	*	*	*	*
8C-X\ 8D-X 8c-	8ryy	.	16g-X\L 16ee- 16gg-X	8ryy	.
.	.	.	16a-\JJN] 16ff 16aa-X	.	.
!!LO:LB:g=original	!	!	!	!	!
=197	=197	=197	=197	=197	=197
*xywh-10:349,3079,3770,921	*xywh-10:349,3079,3770,921	*	*xywh-10:349,3079,3770,921	*xywh-10:349,3079,3770,921	*
*ped	*	*	*	*	*
8FF-X/ 8D-X 8F-X	8ryy	.	8b-\ 8gg-X 8bb-	8ryy	.
*clefG2	*	*	*	*	*
16g-X'/LL 16b-	4f-X\	.	[8gg-/L [8bb-	16dd-X'\LL	.
16an'/J	.	.	.	16ccn'\JJ	.
8b-'/J	.	.	16gg-/LL] 16bb-]	8dd-\	.
.	.	.	16aa-X/	.	.
*clefF4	*	*	*	*	*
*Xped	*	*	*	*	*
(16B-/LL	4F-X\ 4d-X	.	16g-X/ 16gg-X	4dd-\	.
16A-X/J	.	.	16f/JJ 16ff	.	.
8G-X/J)	.	.	16g-\LL 16gg-	.	.
.	.	.	16a-X\ 16aa-X	.	.
((8EEEn/ 8EEn	8ryy	.	16b-\ 16bb-	8gg-/	.
.	.	.	16cc\JJ 16ccc	.	.
*v	*v	*	*	*	*
=198	=198	=198	=198	=198
*ped	*	*	*	*
8FFF/L)) 8FF	.	([4dd\ [4ff [4bb- [4ddd	4ryy	p <
(16D/L 16B-	.	.	.	.
16F/JJ 16c	.	.	.	.
8B-\) 8d	.	16dd\LL] 16ff] 16bb-] 16ddd]	4ryy	.
*Xped	*	*	*	*
.	.	16cc\) 16ccc	.	.
4F\ 4B- 4d	.	16b-\ 16bb-	.	.
.	.	16cc\JJ 16ccc	.	.
.	.	8dd\L 8ddd	8ryy	.
8Bn\ 8d 8a-X	.	16dd\L	8bb-/	.
.	.	16ff\JJ 16fff	.	.
*	*	*v	*v	*
=199	=199	=199	=199
*ped	*	*	*
8FFF/L 8FF	.	[4ee-\ [4gg [4ccc [4eee-	.
16E-/L 16c	.	.	.
16G/JJ 16d	.	.	.
8c\ 8e-	.	16ee-\LL] 16gg] 16ccc] 16eee-]	.
*Xped	*	*	*
.	.	16dd\ 16ddd	.
4G^\ 4c 4e-	.	16cc\ 16ccc	.
.	.	16dd\JJ 16ddd	.
.	.	8ee-\L 8eee-	.
8A\ 8c#X 8g	.	16aa\L 16aaa	.
.	.	16gg\JJ 16ggg	.
!!LO:LB:g=original	!	!	!
=200	=200	=200	=200
*xywh-10:349,3873,3854,1280	*	*xywh-10:349,3873,3854,1280	*
*ped	*	*	*
8FFF/L 8FF	.	[4ff\ [4aa-X [4ddd [4fff	<
16D/L 16B-	.	.	.
16F/JJ 16c	.	.	.
8B-\L 8d	.	16ff\LL] 16aa-] 16ddd] 16fff]	[
.	.	16ee-\ 16eee-	.
*Xped	*	*	*
(8B-\ 8f	.	16dd\ 16ddd	.
.	.	16cc\JJ 16ccc	.
8e-\ 8g	.	16b-\LL 16bb-	.
.	.	16a\ 16aa-	.
8f\J 8a-X	.	16cc\ 16ccc	.
.	.	16b-\JJ 16bb-	.
=201	=201	=201	=201
*	*	*^	*
*ped	*	*	*	*
8F:\) 8B-: 8e-: 8g:	.	8ee-\L 8gg 8eee-	4ryy	.
8r	.	16g'\L 16gg	.	p
.	.	16a'\JJ 16aa	.	.
*Xped	*	*	*	*
8r	.	(4ccc/	8cc\L	.
(8FFF/L 8FF	.	.	8ee-\ 8aa	.
8BBB-/J) 8BB-	.	8bb-/)	8b-\J 8dd 8ff	.
8r	.	16B-/LL 16b-	8ryy	.
.	.	16B-/JJ 16b-	.	.
=202	=202	=202	=202	=202
*ped	*	*	*	*
4r	.	8.B-/L 8.b-	8.ryy	p
*tremolo	*	*clefF4	*	*
*8ba	*	*	*	*
.	.	16BB-/Jk 16B-	16ryy	.
!LO:TX:b:i:t=basso	!	!	!	!
32BBB-/LLL	.	[4B-/	8BB-\L	.
32BB-/	.	.	.	.
32BBB-/	.	.	.	.
32BB-/	.	.	.	.
32BBB-/	.	.	(<24G-X\L	.
32BB-/	.	.	.	.
.	.	.	24F\	.
32BBB-/	.	.	.	.
.	.	.	24E-\JJ	.
32BB-/	.	.	.	.
*Xped	*	*	*	*
32BBB-/	.	8D\) 8B-]	8ryy	.
32BB-/	.	.	.	.
32BBB-/	.	.	.	.
32BB-/	.	.	.	.
*	*	*clefG2	*	*
!	!	!	!	!LO:HP:b:t=poco a poco cresc.
32BBB-/	.	8d/ 8b-	24a-X\LL	<
32BB-/	.	.	.	.
.	.	.	24g-X\	.
32BBB-/	.	.	.	.
.	.	.	24f\JJ	.
32BB-/JJJ	.	.	.	.
=203	=203	=203	=203	=203
*ped	*	*	*	*
32BBB-/LLL	.	8.c/L 8.en 8.b- 8.cc	8.ryy	.
32BB-/	.	.	.	.
32BBB-/	.	.	.	.
32BB-/	.	.	.	.
32BBB-/	.	.	.	.
32BB-/	.	.	.	.
*	*	*clefF4	*	*
32BBB-/	.	16BB-/Jk 16B-	16ryy	.
32BB-/	.	.	.	.
32BBB-/	.	[4B-/	8BB-\L	.
32BB-/	.	.	.	.
32BBB-/	.	.	.	.
32BB-/	.	.	.	.
32BBB-/	.	.	24A-X\L	.
32BB-/	.	.	.	.
.	.	.	24Gn\	.
32BBB-/	.	.	.	.
.	.	.	24F\JJ	.
32BB-/	.	.	.	.
32BBB-/	.	8En\ 8B-]	8ryy	.
32BB-/	.	.	.	.
32BBB-/	.	.	.	.
32BB-/	.	.	.	.
*	*	*clefG2	*	*
32BBB-/	.	8en/ 8cc	24b-\LL	.
32BB-/	.	.	.	.
.	.	.	24an\	.
32BBB-/	.	.	.	.
.	.	.	24g\JJ	.
32BB-/JJJ	.	.	.	.
*Xped	*	*	*	*
*	*	*v	*v	*
!!LO:PB:g=original	!	!	!
=204	=204	=204	=204
*	*	*^	*
*xywh-11:276,465,3599,1140	*	*xywh-11:276,465,3599,1140	*xywh-11:276,465,3599,1140	*xywh-11:276,465,3599,1140
*ped	*	*	*	*
32BBBB-/LLL	.	8.d/L 8.f#X 8.b- 8.dd	8.ryy	.
32BBB-/	.	.	.	.
32BBBB-/	.	.	.	.
32BBB-/	.	.	.	.
32BBBB-/	.	.	.	.
32BBB-/	.	.	.	.
*	*	*clefF4	*	*
32BBBB-/	.	16BB-/Jk 16B-	16ryy	.
32BBB-/	.	.	.	.
32BBBB-/	.	(8BB-\L 8B-	8ryy	.
32BBB-/	.	.	.	.
32BBBB-/	.	.	.	.
32BBB-/	.	.	.	.
32BBBB-/	.	24c\L	8ryy	.
32BBB-/	.	.	.	.
.	.	24B-\	.	.
32BBBB-/	.	.	.	.
.	.	24A\JJ	.	.
*Xped	*	*	*	*
32BBB-/JJJ	.	.	.	.
8BBBB-/L 8BBB-	.	8B-/)	8ryy	.
*X8ba	*	*clefG2	*	*
*	*	*v	*v	*
*	*	*	*
*	*	*^	*
8AA-X/J 8A-X	.	8d\ 8b-	24dd/LL	.
.	.	.	24cc/	.
.	.	.	24dd/JJ	.
*Xtremolo	*	*	*	*
=205	=205	=205	=205	=205
*ped	*	*	*	*
[4GG/ [4G	.	8e-/L 8b- 8ee-	4ryy	.
.	.	(24c/L	.	.
.	.	24B-/	.	.
.	.	24A/JJ	.	.
*Xped	*	*	*	*
8GG/L] 8G]	.	8B-/L)	4ryy	<
8AA-X'/ 8A-X	.	(24cc/L	.	.
.	.	24b-/	.	.
.	.	24a/JJ	.	.
8GG'/ 8G	.	8b-/L)	8ryy	.
8GG-X'/J 8G-X	.	8een/J 8eeen	(>24ddd-X\LL	.
.	.	.	24ccc\	.
.	.	.	24bb-\JJ	[
=206	=206	=206	=206	=206
!	!	!LO:TX:t=P:problem=mixed beam	!	!
!	!	!	!	!LO:HP:t=cresc. molto
8FF'/L 8F	.	8ff\L) 8aa 8fff	4ryy	<
8EE-'/J 8E-	.	(24A/L	.	.
.	.	24B-/	.	.
.	.	24c/JJ	.	.
4DD/ 4D	.	&(4f#X/	8B-\L)	.
.	.	.	(24B-\L	.
.	.	.	24c\	.
.	.	.	24d\JJ	.
8CC'/L 8C	.	4g/	8e-\L)	.
8BB-'/J 8B-	.	.	(24e-\L	.
.	.	.	24d\	.
.	.	.	24c\JJ	.
=207	=207	=207	=207	=207
8AA'\L 8A	.	4a/)	8c#X\L&)	.
8GG'\ 8G	.	.	(24c#\L	.
.	.	.	24d\	.
.	.	.	24en\JJ	.
8FF#X'\ 8F#X	.	(4b-/	8d\L)	.
8C'\J 8c	.	.	(24d\L	.
.	.	.	24e-X\	.
.	.	.	24f\JJ	.
8BB-'\L 8B-	.	4cc/	8en\L)	.
8GG'\J 8G	.	.	24e\L	.
.	.	.	24f#X\	.
.	.	.	24g\JJ	.
!!LO:LB:g=original	!	!	!	!
=208	=208	=208	=208	=208
*xywh-11:251,1490,3707,879	*	*xywh-11:251,1490,3707,879	*xywh-11:251,1490,3707,879	*
8DD/L 8D	.	8dd/)	8f#X\L	.
8C/J 8c	.	8ryy	(<24ff#X\L	.
.	.	.	24gg\	.
.	.	.	24aa\JJ	.
8BB-/L 8B-	.	4ee-^/ 4eee-	8gg\L)	.
8GG/ 8G	.	.	(24ccc\L	.
.	.	.	24bb-\	.
.	.	.	24aa\JJ	.
8C/ 8c	.	4een^/ 4eeen	8bb-\L)	.
8CC/J 8C	.	.	(24bb-\L	.
.	.	.	24aa\	.
.	.	.	24gg\JJ	.
=209	=209	=209	=209	=209
*^	*	*	*	*
*ped	*	*	*	*	*
!	!	!	!	!LO:N:vis=2	!
8ryy	8FF/L 8F	.	[2.ff/ [2.bb- [2.eee- [2.fff	8ff\L)	ff
*Xped	*	*	*	*	*
8ryy	(24B-/L	.	.	(24g\L	.
.	24A/	.	.	24a\	.
.	24G/JJ	.	.	24b-\JJ	.
!LO:TX:b:i:t=simile	!	!	!	!	!
8e-/)	8F\L	.	.	8f/L) 8ee-	.
8ryy	(24B-\L	.	.	(24g/L	.
.	24A\	.	.	24a/	.
.	24G\JJ	.	.	24b-/JJ	.
8e-/)	8F\L	.	.	8f/L) 8ee-	.
8ryy	(24B-\L	.	.	(<24g/L	.
.	24A\	.	.	24a/	.
.	24G\JJ	.	.	24b-/JJ	.
=210	=210	=210	=210	=210	=210
8e-/)	8F\L	.	8ff/] 8bb-] 8eee-] 8fff]	8f\L) 8dd	.
*v	*v	*	*	*	*
*	*	*v	*v	*
*	*	*8va	*
*^	*	*^	*
8ryy	(24B-\L	.	8ryy	(24gg\L	.
.	24A\	.	.	24aa\	.
.	24G\JJ	.	.	24bb-\JJ	.
8e-/)	8F\L	.	8eee-/) 8ggg	8gg\L	<
8ryy	(24B-\L	.	8ryy	(24gg\L	.
.	24A\	.	.	24aa\	.
.	24G\JJ	.	.	24bb-\JJ	.
8e-/)	8F\L	.	8aaa/)	8aa\L 8eee-	.
8ryy	(24c\L	.	8ryy	24eee-\L	.
.	24d\	.	.	24ddd\	.
.	24e-\JJ	.	.	24ccc\JJ	[
*v	*v	*	*	*	*
*	*	*v	*v	*
!!LO:LB:g=original	!	!	!
=211	=211	=211	=211
*xywh-11:257,2312,3771,936	*	*xywh-11:257,2312,3771,936	*
!	!	!LO:TX:b:i:t=con gran forza	!
*ped	*	*	*
8BB-:\) 8F: 8B-: 8d:	.	8bb-\L 8ddd 8bbb-	.
*	*	*X8va	*
(16D\LL 16B-	.	16b-\L 16dd 16bb-	.
16F\JJ 16c	.	16cc\JJ 16ff 16ccc	.
*Xped	*	*	*
8B-\L) 8d	.	[4dd\ [4ff [4ddd	.
8FF\ 8F	.	.	.
8BB-\ 8B-	.	16dd\LL] 16ff] 16ddd]	.
.	.	16cc\ 16ccc	.
8FF\J 8F	.	16b-\ 16ff 16bb-	.
.	.	16cc\JJ 16ff 16ccc	.
=212	=212	=212	=212
*ped	*	*	*
8BBB-/L 8BB-	.	8.dd\L 8.bb- 8.ddd	.
(16B-/L 16d	.	.	.
16c/JJ 16e-	.	((16ee-\Jk 16ccc 16eee-	.
8d/L) 8f	.	[2ff\)) [2ddd [2fff	.
*Xped	*	*	*
8FF'/ 8F	.	.	.
8BB-'/ 8B-	.	.	.
16BBB-'/L 16BB-	.	.	.
16AAA'/JJ 16AA	.	.	.
=213	=213	=213	=213
*^	*	*	*
*ped	*	*	*	*
8GGG/ 8GG	8ryy	.	16ff\LL] 16ddd] 16fff]	.
.	.	.	16ee-\ 16ccc 16eee-	.
*Xped	*	*	*	*
(16f/LL	4G\ 4B-	.	16dd\ 16bb- 16ddd	.
16e-/JJ	.	.	16cc#X\JJ 16aa 16ccc#X	.
8d/)	.	.	8dd\ 8bb- 8ddd	<
16GG/LL 16G	16ryy	.	4dd^\ 4bb- 4ddd	.
16FF#X/JJ 16F#X	16ryy	.	.	.
8GG/L 8G	8ryy	.	.	.
*v	*v	*	*	*
*	*	*8va	*
*^	*	*	*
*ped	*	*	*	*
16EEEn/L 16EEn	8ryy	.	[8bb-\ [8ddd [8ggg [8bbb-	[[
16FFF/JJ 16FF#	.	.	.	.
*v	*v	*	*	*
=214	=214	=214	=214
*	*	*^	*
*Xped	*	*	*	*
8GGG/L 8GG	.	8bb-\L] 8ddd] 8ggg] 8bbb-]	8ryy	.
8AAA/ 8AA	.	(16aa\L 16aaa	4ccc#X/	.
.	.	16gg\JJ 16ggg	.	.
8BBB-/ 8BB-	.	8ff\L) 8ddd 8fff	.	.
8BBBn/ 8BBn	.	(16ee-X\L 16eee-X	8aa/	.
.	.	16dd\JJ 16ddd	.	.
8CC/ 8C	.	8ee-\L) 8eee-	8ryy	.
*	*	*v	*v	*
*	*	*X8va	*
*	*	*^	*
8DD/J 8D	.	(16dd\L 16ddd	8ff#X/	.
.	.	16cc#\JJ 16ccc	.	.
!!LO:LB:g=original	!	!	!	!
=215	=215	=215	=215	=215
*xywh-11:225,3114,3624,847	*	*xywh-11:225,3114,3624,847	*xywh-11:225,3114,3624,847	*
8EE-/L 8E-	.	8b-\L) 8gg 8bb-	8ryy	>
8EEn/ 8En	.	16a\L 16aa	8cc#X/	.
.	.	16g\JJ 16gg	.	.
8FF/ 8F	.	8f\ 8dd 8ff	8ryy	.
8GG-X/ 8G-X	.	(16e-X/LL 16ee-X	[8b-\	.
.	.	16d/J 16dd	.	.
8GGn/ 8Gn	.	8e-/J) 8b-] 8ee-	8r	.
8AA/J 8A	.	(16dd/LL	8f#X\	.
.	.	16cc#/JJ	.	.
=216	=216	=216	=216	=216
8BB-\ 8B-	.	8g/) 8b-	8ryy	] p
*ped	*	*	*	*
(8F-X\L 8f-X	.	(16dd-X/LL	[8g-X\L	.
.	.	16b-/J	.	.
*Xped	*	*	*	*
8E-\J) 8e-	.	8cc-X/J)	8g-\J]	<
(8D-X\L [<8G-X 8d-X	.	(16ff-X/LL	8f\L [8g- 8bn	.
.	.	16dd-/J	.	.
8C-X\J) 8G-] 8c-X	.	8ee-/J)	8e-\J 8g-] 8ccn	.
(8BB--\ 8B--	.	(16gg-X/LL	(8g-\ 8cc	.
.	.	16ee-/JJ	.	[
=217	=217	=217	=217	=217
8AA-X/L) 8A-X	.	8ff-X/L)	8f-X\L) 8cc-X	.
(8GG-X/ [8C-X 8G-X	.	(16bb--/L	(8b--\J 8cc- 8ee-	<
.	.	16gg-X/JJ	.	.
8FF-X/) 8C-] 8F-X	.	8ff-/L) 8aa-X	8a\L) 8cc-	.
8EE-X'/ 8E-X	.	(16aan/L	8an\J 8ccn	.
.	.	16ffn/JJ	.	.
!	!	!LO:TX:t=P:problem=kasownik przed bemolem	!	!
8DDn'/ 8Dn	.	8b-X\L) 8ff 8bb-X	4ryy	.
8CCn'/J 8Cn	.	8cc'\J 8ee- 8aa 8cccn	.	.
!!LO:LB:g=original	!	!	!	!
=218	=218	=218	=218	=218
*xywh-11:232,3879,3751,1439	*	*xywh-11:232,3879,3751,1439	*xywh-11:232,3879,3751,1439	*
*ped	*	*	*	*
8BBB-/L 8BB-	.	[4dd\ [4ff [4bb- [4ddd	4ryy	[ ff
16BB-/L 16B-	.	.	.	.
*Xped	*	*	*	*
16AA/JJ 16A	.	.	.	.
8BB-/L 8B-	.	16dd\LL] 16ff] 16bb-] 16ddd]	4ryy	.
.	.	16cc\ 16ccc	.	.
(8FF#X/J 8F#X	.	16b-\ 16bb-	.	.
.	.	16a\JJ 16aa	.	.
8GG/L) 8G	.	16b-\LL 16bb-	16ryy	.
.	.	16cc\ 16ccc	16ryy	.
16FFn/L 16Fn	.	16dd\ 16ddd	8bb-/	.
16EE-/JJ 16E-	.	16ee-\JJ 16eee-	.	.
=219	=219	=219	=219	=219
*ped	*	*	*	*
8DD/L 8D	.	[4ff\ [4bb- [4fff	4ryy	.
16BB-/L 16B-	.	.	.	.
*Xped	*	*	*	*
16AA/JJ 16A	.	.	.	.
8GG/L 8G	.	16ff\LL] 16bb-] 16fff]	8ryy	.
.	.	16ee-\ 16eee-	.	.
16FF/L 16F	.	16dd\ 16ddd	8bb-/	.
16EE-/JJ 16E-	.	16cc\JJ 16ccc	.	.
8DD/L 8D	.	16dd\LL 16ddd	8ryy	.
.	.	16ff\ 16fff	.	.
8CC/J 8C	.	16gg\ 16ggg	8eee-/	.
.	.	16aa\JJ 16aaa	.	.
*	*	*v	*v	*
=220	=220	=220	=220
*ped	*	*	*
8BBB-/ 8BB-	.	8bb-\ 8ddd 8bbb-	.
8r	.	8r	.
[4BB-\ [4F [4B- [4d	.	[4b-\ [4dd [4ff [4bb-	mf
8.BB-\L] 8.F] 8.B-] 8.d]	.	8.b-\L] 8.dd] 8.ff] 8.bb-]	.
*Xped	*	*	*
16B-\Jk 16d 16f	.	16b-\Jk 16dd 16ff 16bb-	.
=221	=221	=221	=221
*ped	*	*	*
8B-\ 8d 8f	.	8b-\ 8dd 8ff 8bb-	.
8r	.	8r	.
*tremolo	*	*	*
32BBB-/LLL 32FF	.	[4B-/ [4d [4f [4b-	ff
32BB-/	.	.	.
32BBB-/ 32FF	.	.	.
32BB-/	.	.	.
32BBB-/ 32FF	.	.	.
32BB-/	.	.	.
32BBB-/ 32FF	.	.	.
32BB-/	.	.	.
32BBB-/ 32FF	.	8B-/L] 8d] 8f] 8b-]	.
32BB-/	.	.	.
32BBB-/ 32FF	.	.	.
32BB-/	.	.	.
32BBB-/ 32FF	.	16B-/L 16d 16f 16b-	.
32BB-/	.	.	.
32BBB-/ 32FF	.	16B-/JJ 16d 16f 16b-	.
32BB-/JJJ	.	.	.
=222	=222	=222	=222
32BBB-/LLL 32FF	.	2.B-/ 2.d 2.f 2.b-	.
32BB-/	.	.	.
32BBB-/ 32FF	.	.	.
32BB-/	.	.	.
32BBB-/ 32FF	.	.	.
32BB-/	.	.	.
32BBB-/ 32FF	.	.	.
32BB-/	.	.	.
32BBB-/ 32FF	.	.	.
32BB-/	.	.	.
32BBB-/ 32FF	.	.	.
32BB-/	.	.	.
32BBB-/ 32FF	.	.	.
32BB-/	.	.	.
32BBB-/ 32FF	.	.	.
32BB-/	.	.	.
32BBB-/ 32FF	.	.	.
32BB-/	.	.	.
32BBB-/ 32FF	.	.	.
32BB-/	.	.	.
32BBB-/ 32FF	.	.	.
32BB-/	.	.	.
32BBB-/ 32FF	.	.	.
32BB-/JJJ	.	.	.
*Xped	*	*	*
==	==	==	==
*-	*-	*-	*-
!!!system-decoration: {(s1,s2)}
!!!RDF**kern: > = above
!!!RDF**kern: < = below
!!!RDF**kern: N = linked
!!!ENC: Berenika Jozajtis
!!!END: 2022-03-16
!!!ENC: Jan Barakat
!!!END: 2022-03-18
!!!IIIF: https://polona.pl/iiif/item/MTA5NzAwMjM5/manifest.json
!!!ENC-iiif: Natalia Wrzos
!!!END-iiif: 2022-08-30
!!!YEC: Copyright 2022 Narodowy Instytut Fryderyka Chopina (https://polishscores.org)
!!!YEM: License CC-BY-4.0 (https://creativecommons.org/licenses/by/4.0)
